moelyaakoubi/UNIVERSAL-ROBOT-robotic-platform-for-algorithm-evaluation/robot_data_current.csv
Trajectory_ID,Timestamp,Joint_1,Joint_2,Joint_3,Joint_4,Joint_5,Joint_6,Cartesian_x,Cartesian_y,Cartesian_z,Cartesian_rx,Cartesian_ry,Cartesian_rz,Current_1,Current_2,Current_3,Current_4,Current_5,Current_6,Voltage_1,Voltage_2,Voltage_3,Voltage_4,Voltage_5,Voltage_6
1,1735835701.6230328,-1.1708245604752134,-1.9539847764546696,-1.6201592128896447,-1.0553607844434865,1.5970642785053126,0.7689182027953,0.028440000000000007,-0.3976100000000001,0.20367999999999992,0.5620000000000019,3.0209999999999986,-0.0839999999999967,4.7777844012766464e-17,2.0562780543580446,1.9561249743474012,0.9831345742994184,0.020551286331027714,0.0,0.0,0.0,0.0,0.0,0.0,0.0
1,1735835701.724474,-1.1708245604752134,-1.9539847764546696,-1.6201592128896447,-1.0553607844434865,1.5970642785053126,0.7689182027953,0.028440000000000007,-0.3976100000000001,0.20367999999999992,0.5620000000000019,3.0209999999999986,-0.0839999999999967,4.7777844012766464e-17,2.0562780543580446,1.9561249743474012,0.9831345742994184,0.020551286331027714,0.0,0.0,0.0,0.0,0.0,0.0,0.0
1,1735835701.825412,-1.1708245604752134,-1.9539847764546696,-1.6201592128896447,-1.0553607844434865,1.5970642785053126,0.7689182027953,0.028440000000000007,-0.3976100000000001,0.20367999999999992,0.5620000000000019,3.0209999999999986,-0.0839999999999967,4.7777844012766464e-17,2.0562780543580446,1.9561249743474012,0.9831345742994184,0.020551286331027714,0.0,0.0,0.0,0.0,0.0,0.0,0.0
1,1735835701.9264135,-1.1708245604752134,-1.9539847764546696,-1.6201592128896447,-1.0553607844434865,1.5970642785053126,0.7689182027953,0.028440000000000007,-0.3976100000000001,0.20367999999999992,0.5620000000000019,3.0209999999999986,-0.0839999999999967,4.7777844012766464e-17,2.0562780543580446,1.9561249743474012,0.9831345742994184,0.020551286331027714,0.0,0.0,0.0,0.0,0.0,0.0,0.0
1,1735835702.026909,-1.170824560761674,-1.9539847634268215,-1.6201592128449658,-1.0553607979434867,1.5970642773903847,0.7689182093640784,0.028439999086559718,-0.397609998380521,0.20368000367436095,0.5620000106143896,3.0209999990331955,-0.08400000009710093,-1.9511536610642202e-05,2.056420414047907,1.9561715070228711,0.9831327557179423,0.020548405276961182,1.2565183447812356e-05,0.0,0.0,0.0,0.0,0.0,0.0
1,1735835702.1274345,-1.1708266301516126,-1.9538906502527293,-1.6201588900861381,-1.0554583219434868,1.5970562231511258,0.7689656622190274,0.028433399925282078,-0.3975982980837914,0.2037065466594869,0.5620766889418558,3.020993013837727,-0.08400070182867643,-0.0018418385241425895,2.069606312031393,1.9605780155227441,0.9829599633032929,0.020273156035963042,0.0011858390181936308,0.0,0.0,0.0,0.0,0.0,0.0
1,1735835702.2277734,-1.1708488849622638,-1.9528785302890626,-1.6201554190454859,-1.0565071229034864,1.596969605560925,0.7694759837791082,0.028362371362557637,-0.39747232062731336,0.2039919217869287,0.5629013065331866,3.020917766561907,-0.08400828287319,-0.006368567258027304,2.101338686773363,1.971972814104865,0.982483314209066,0.019539085936754803,0.004089960392175782,0.0,0.0,0.0,0.0,0.0,0.0
1,1735835702.328632,-1.1709383288079342,-1.9488107400369463,-1.6201414686583409,-1.0607223369834866,1.5966214826093685,0.7715270065254831,0.028075808824113493,-0.39696325716910624,0.20513746445880882,0.5662154524126778,3.020613007069532,-0.0840393869995609,-0.013943401766759306,2.1506537495823466,1.992016489893345,0.9813889053434413,0.01816593621791029,0.008865296249088116,0.0,0.0,0.0,0.0,0.0,0.0
1,1735835702.429127,-1.1711776355354235,-1.9379273800243046,-1.6201041444414548,-1.0720001289834862,1.595690080748498,0.7770145114260374,0.0273005345660587,-0.39557965555347363,0.20819119210046794,0.5750819573664697,3.019779232337639,-0.08412760887230873,-0.025241746466687226,2.214172722140868,2.022472556120174,0.9786150382112832,0.01585437855028735,0.015636051509877548,0.0,0.0,0.0,0.0,0.0,0.0
1,1735835702.529354,-1.1716013010359934,-1.918659621796138,-1.6200380661360256,-1.0919661844434865,1.5940411390753684,0.7867295183335499,0.025897614827632053,-0.39305341720864506,0.21355665554405479,0.5907771575628598,3.0182374143476,-0.08430165804767867,-0.02165627568670579,2.1556030139689746,2.02012181481324,0.9762094725317974,0.015248582182906699,0.012564330238252678,0.0,0.0,0.0,0.0,0.0,0.0
1,1735835702.6299648,-1.1722026387102176,-1.8913115632337671,-1.6199442766382965,-1.120305384443487,1.5917006823959419,0.8005186978890682,0.0238405731404917,-0.38930091333236094,0.22107920876082834,0.6130493436648665,3.015904613328568,-0.08458789754765572,-0.023246745527070824,2.120801442786141,2.03231326005692,0.9721650090064928,0.01337951090915166,0.012563667285341735,0.0,0.0,0.0,0.0,0.0,0.0
1,1735835702.7310226,-1.1729751905833536,-1.8561769046640526,-1.6198237831863533,-1.1567133844434867,1.5886938456897342,0.8182339632902549,0.02108683155150922,-0.384196633759083,0.23057507417768908,0.6416521051186359,3.0126585246012194,-0.08502313562907036,-0.025196298774903064,2.0742514650761787,2.0462483893261925,0.9668637148209156,0.010987695025893151,0.012562812496916619,0.0,0.0,0.0,0.0,0.0,0.0
1,1735835702.8320682,-1.1738939009189746,-1.8143951485270957,-1.6196804936759346,-1.2000093844434865,1.585118147985055,0.8393007653889635,0.017653983916962553,-0.37771969463666283,0.24160543599085116,0.6756465395629286,3.0084328821226154,-0.08563950983887827,-0.02737125459854464,2.0162790775808164,2.0602682548884057,0.9604230219130748,0.00815900726423524,0.012561791507772927,0.0,0.0,0.0,0.0,0.0,0.0
1,1735835702.9326823,-1.1750339369263587,-1.7625477875025997,-1.6195026844198237,-1.2537357844434869,1.5806810321969755,0.8654427516296336,0.013163829153138322,-0.36908325971371564,0.2548694241612909,0.7177936262941139,3.0026358578156342,-0.08655353499758497,-0.029842676834501824,1.9405406130577862,2.073775462971365,0.9522582232552259,0.004675747190397251,0.012560517821130454,0.0,0.0,0.0,0.0,0.0,0.0
1,1735835703.0334463,-1.1762807469812646,-1.7058444810921376,-1.6193082218178194,-1.3124941177768203,1.5758283428577575,0.894033156747503,0.007974414397645934,-0.35890318439616936,0.2687984408198153,0.7638305376540881,2.995592316154957,-0.08774212622036227,-0.00644245904008425,1.7157014445209362,2.0490143811710104,0.9601559426746848,0.004218881854121995,-3.220623053007241e-06,0.0,0.0,0.0,0.0,0.0,0.0
1,1735835703.1340053,-1.1775284411732105,-1.649100965274208,-1.6191136213186361,-1.37129411777682,1.570972212382999,0.9226438358726893,0.002505875567034388,-0.34797832293940056,0.2820893034697761,0.8098272828115899,2.9878059516351625,-0.08912890516653495,-0.0060010733770481765,1.6262806151055786,2.0625573315569263,0.9585972478088548,0.0004707412572845545,-3.2329283252466104e-06,0.0,0.0,0.0,0.0,0.0,0.0
1,1735835703.2344303,-1.1788949633834376,-1.586953305092667,-1.6189004874385784,-1.43569411777682,1.5656535932915967,0.9539793415812265,-0.00377909969948741,-0.33520694718541,0.2958506117306229,0.8601055905248005,2.978428993935495,-0.09087381743421528,-0.005500027218104697,1.523576827063907,2.0714206198669096,0.9569540631157195,-0.00363094755802175,-3.2463216206401767e-06,0.0,0.0,0.0,0.0,0.0,0.0
1,1735835703.334996,-1.1802020715845245,-1.5275077170929308,-1.6186966202489579,-1.4972941177768204,1.5605662185085163,0.9839524339980883,-0.010058705868040268,-0.32224539974901045,0.308187060462927,0.908085364988364,2.9686273037836863,-0.09276343906049248,-0.005005066022930882,1.4210286029587973,2.0740258268045992,0.955445656067827,-0.007551334856814266,-3.259049951866546e-06,0.0,0.0,0.0,0.0,0.0,0.0
1,1735835703.4353693,-1.1814497657764704,-1.470764201275001,-1.6185020197497746,-1.5560941177768202,1.5557100880337578,1.0125631131232744,-0.016277035884436415,-0.30923480203247244,0.3191672748022251,0.95376721948027,2.9585104614564206,-0.09476772921723921,-0.004519667111524076,1.3195466039947217,2.0711446801369626,0.9540640453252544,-0.011291191897996149,-3.2711238263388116e-06,0.0,0.0,0.0,0.0,0.0,0.0
1,1735835703.5356436,-1.1826974599684164,-1.4140206854570723,-1.6183074192505913,-1.6148941177768208,1.5508539575589992,1.0411737922484607,-0.022694548527675298,-0.2956425298125182,0.3293337561638492,0.9993209938977023,2.947649560730968,-0.09696721084743291,-0.004022921337462239,1.2148834056336844,2.0630275939265506,0.9527395259527172,-0.015029156198457745,-3.2831230862231234e-06,0.0,0.0,0.0,0.0,0.0,0.0
1,1735835703.6358888,-1.183980541890092,-1.355667781525752,-1.6181072993942491,-1.6753618329281164,1.5458600950711552,1.070595941833952,-0.029480749958830415,-0.2811033724551871,0.33890464180458846,1.0460187769594116,2.9357037850476893,-0.09943180771199933,0.02581762584487376,0.9718533810274242,2.020953290833888,0.9838459812772299,-0.015280637252917331,-0.012562879311630613,0.0,0.0,0.0,0.0,0.0,0.0
1,1735835703.7364473,-1.184955002568012,-1.3113505720297063,-1.6179553146085688,-1.7212851755480703,1.5420674123568776,1.0929411462566643,-0.03474758554462759,-0.269710610416091,0.345554143548534,1.081374860285166,2.9261047139849072,-0.1014403424482837,0.0272036447626202,0.8880856475474144,2.0138190547755084,0.988860052753818,-0.01836910166447479,-0.01256177216979986,0.0,0.0,0.0,0.0,0.0,0.0
1,1735835703.8369274,-1.185838685732767,-1.2711618062560177,-1.6178174882196252,-1.7629304524300187,1.5386280433399355,1.1132047458136194,-0.03959885442810379,-0.2591378179933976,0.35110938695679267,1.1133494410169986,2.9170066607277425,-0.10336340022448645,0.02826624938048793,0.8109231262866523,2.004607182089256,0.9933598222239061,-0.021200204151551313,-0.012560763651800868,0.0,0.0,0.0,0.0,0.0,0.0
1,1735835703.9374084,-1.1864291568377272,-1.244307945189254,-1.617725393560117,-1.7907575443534753,1.5363298802597753,1.1267447457797604,-0.04287638033039576,-0.25195387105709527,0.35456486122580716,1.1346655035296092,2.910718952949968,-0.10470205361604146,0.028871773649208187,0.7587899178955251,1.99700518177722,0.9963302732481054,-0.02310826116903502,-0.012560087388072485,0.0,0.0,0.0,0.0,0.0,0.0
1,1735835704.0379596,-1.1869593793475914,-1.2201941121925817,-1.6176426957598355,-1.8157453048009229,1.5342662097664963,1.1389031946950483,-0.045841846137455,-0.24542643713215245,0.3574901526227327,1.1537716015793977,2.90493052117926,-0.10594064583068016,0.029343429553683464,0.7116192363319552,1.9891962032350976,0.998966650559407,-0.02483286985814205,-0.012559478510691302,0.0,0.0,0.0,0.0,0.0,0.0
1,1735835704.1385157,-1.1872882071151025,-1.2052394512287474,-1.6175914091159473,-1.8312419488138687,1.532986384507181,1.1464434924734777,-0.04769081579821097,-0.24134367231341822,0.359219088470359,1.165603490211154,2.9012730802568285,-0.10672610567699091,0.029601437589406705,0.6822078376979134,1.9838881617671806,1.00058479753601,-0.025907780466960288,-0.012559100138035411,0.0,0.0,0.0,0.0,0.0,0.0
1,1735835704.24095,-1.1874013432808015,-1.2000941649483536,-1.617573763482536,-1.8365737092613168,1.532546049058321,1.1490378000812036,-0.04832862958329476,-0.2399330321657142,0.35979876369547026,1.1696712673128378,2.900002734303133,-0.10699941146795129,0.02968407547968987,0.6720621257818118,1.981979802044692,1.0011383017084716,-0.026278563236573897,-0.012558969820315192,0.0,0.0,0.0,0.0,0.0,0.0
1,1735835704.341294,-1.1916874414448078,-1.2033849153829115,-1.6158971008517673,-1.8350024229717468,1.5323943802658408,1.144605731056332,-0.049053831990258374,-0.24052129932152952,0.3597582231999169,1.169625776187019,2.9004851628885073,-0.10721544918501097,-0.08282431276946417,0.7433436003682043,2.021257780415337,0.9774387791223369,-0.05056959827615201,-0.022712587259189242,0.0,0.0,0.0,0.0,0.0,0.0
1,1735835704.4418273,-1.2053516527960504,-1.2139114916149776,-1.6105516684887862,-1.8299565917579859,1.5319138213567858,1.130457731056332,-0.051400395566261387,-0.24239669897907487,0.35960732816620633,1.1694550518057787,2.9020380687127325,-0.10787668237253943,-0.08447531555114438,0.7623826761208862,2.0225387627696954,0.9762163860528756,-0.05184593917420266,-0.022712726563356052,0.0,0.0,0.0,0.0,0.0,0.0
1,1735835704.5423853,-1.2290223782106198,-1.2321468430113907,-1.60129169303658,-1.8212156200268703,1.5310813416995728,1.105948931056332,-0.055605589519218096,-0.24560685073020858,0.35928187624864116,1.169165963545372,2.904749505484922,-0.108928869476367,-0.08749719151603956,0.7954997510944221,2.0246292324048043,0.9740409204918754,-0.05406223254839903,-0.022712976657379723,0.0,0.0,0.0,0.0,0.0,0.0
1,1735835704.6431744,-1.2616704557139693,-1.2572981282070907,-1.5885197821235044,-1.8091595500275792,1.529933136061907,1.0721449310563318,-0.06169829527926115,-0.24994132758667367,0.35869915566741317,1.1687797385065841,2.908530410951718,-0.11018349497219186,-0.09200168932400289,0.8414407533374161,2.027241792549427,0.9709207502542989,-0.05712725717780318,-0.022713339859407898,0.0,0.0,0.0,0.0,0.0,0.0
1,1735835704.7438178,-1.3006117196157287,-1.2872975312094157,-1.5732859799694632,-1.7947795730316196,1.5285636043109105,1.0318249310563317,-0.06940978037966808,-0.2549433729914257,0.35780011666868816,1.1683351834111542,2.9130956979203693,-0.11137696460630023,-0.09788295148794661,0.8965998442136001,2.029940879198269,0.9670196069002206,-0.06078972156170313,-0.022713800752508468,0.0,0.0,0.0,0.0,0.0,0.0
1,1735835704.8443532,-1.345301455807748,-1.3217254175120843,-1.5558033784498253,-1.7782768375267324,1.5269919035871478,0.9855529310563318,-0.07885365374716849,-0.26041444629159716,0.35649333034908004,-1.165017091057239,-2.91133897849464,0.11206144008854385,-0.10530798156739882,0.9603238609845469,2.032468519586645,0.9623052842549231,-0.06499221810391476,-0.02271436679181845,0.0,0.0,0.0,0.0,0.0,0.0
1,1735835704.9448793,-1.3972066579354259,-1.361711923355184,-1.5354980904146611,-1.7591096216282018,1.525166440948465,0.9318099977229982,-0.09061121113026968,-0.2663377087049498,0.3546045796947872,-1.160324525428396,-2.9071858385778584,0.11220622078207036,-0.021362355742339682,1.104963437638032,2.0336016481402663,0.9483974630172443,-0.04529173882006636,-1.6397784413106758e-06,0.0,0.0,0.0,0.0,0.0,0.0
1,1735835705.045117,-1.45129174668787,-1.4033777608584135,-1.5143400318673823,-1.7391374313560357,1.5232643135165254,0.8758099977229982,-0.10374667326218802,-0.2719277427387998,0.3522103617528668,-1.1554398654074343,-2.9028460592073095,0.1117029334864081,-0.022865013146593744,1.1828380630689894,2.0407239965828596,0.9473977788526845,-0.04675324780608458,-1.7244883309713788e-06,0.0,0.0,0.0,0.0,0.0,0.0
1,1735835705.1453931,-1.5040247082215021,-1.4440019524240624,-1.4937109247837848,-1.7196645458406739,1.5214097392703843,0.8212099977229981,-0.11739531741386734,-0.2767143995788537,0.3494558461420556,-1.1506923510428877,-2.8986282178266913,0.11057041492182233,-0.024294468071730517,1.258766003850558,2.0470020342735102,0.9464325125232292,-0.04815547789216205,-1.8070775185391822e-06,0.0,0.0,0.0,0.0,0.0,0.0
1,1735835705.245889,-1.5621661786303793,-1.4887927277400346,-1.4709660118454595,-1.698194441298095,1.519364952281049,0.761009997722998,-0.13336358825658165,-0.2811249353108008,0.3459371150116931,-1.1454868938323828,-2.8940230777063607,0.10859172011470553,-0.025819664585686696,1.342332462950928,2.05315842136487,0.9453801700677481,-0.049675448809147184,-1.8981335385155974e-06,0.0,0.0,0.0,0.0,0.0,0.0
1,1735835705.3464205,-1.6243640306956895,-1.5367084408687486,-1.4466342445160878,-1.6752264224851032,1.5171775057343184,0.696609997722998,-0.1514470675986087,-0.28470879180516556,0.34161359518641965,-1.1399658622373539,-2.8891850812985904,0.10563698403019128,-0.02738002475930189,1.431373949817119,2.0588522969101546,0.9442696221508354,-0.051271181138330166,-1.995537255006704e-06,0.0,0.0,0.0,0.0,0.0,0.0
1,1735835705.4469845,-1.68791400997981,-1.5856657999350432,-1.4217735257230348,-1.6517590989153081,1.5149425060017894,0.630809997722998,-0.1709005726804296,-0.2870203679442295,0.3366002003203573,-1.1343909022475904,-2.884376083639751,0.10173898719557406,-0.028884650961953407,1.521765039274157,2.0637146920478715,0.9431526995363433,-0.05286933528331488,-2.0950524008628604e-06,0.0,0.0,0.0,0.0,0.0,0.0
1,1735835705.5475528,-1.7514639892639305,-1.6346231590013378,-1.396912806929981,-1.628291775345513,1.5127075062692603,0.565009997722998,-0.19122869846154825,-0.28783076724949286,0.3309871775180927,-1.1288979853343706,-2.879742915586998,0.09697377086318464,-0.030284887755304062,1.6113488883447558,2.0676093216432916,0.9420552896535215,-0.05443501621590616,-2.1945607605873814e-06,0.0,0.0,0.0,0.0,0.0,0.0
1,1735835705.6482701,-1.8123097141104303,-1.6814972261924712,-1.3731099910642923,-1.6058230612893256,1.5105676129083283,0.5020099977229978,-0.21139109653046861,-0.28708253223632324,0.32505486941558703,-1.1237291961793214,-2.87550784539879,0.09162291903247387,-0.03151536707724984,1.6961651775676896,2.0704299921945397,0.9410242752383805,-0.055903844878887,-2.2898277317377085e-06,0.0,0.0,0.0,0.0,0.0,0.0
1,1735835705.749008,-1.8745075661757404,-1.7294129393211852,-1.3487782237349215,-1.582855042476334,1.5083801663615977,0.4376099977229978,-0.2325734062314431,-0.2846700440427929,0.31843144816311153,-1.1185497731466691,-2.871416768663238,0.08538457745730162,-0.032649967839426315,1.7817017567681195,2.07239437661638,0.939991646117561,-0.057375024049423115,-2.387204045170182e-06,0.0,0.0,0.0,0.0,0.0,0.0
1,1735835705.849565,-1.9326490365846167,-1.7742037146371565,-1.3260333107965954,-1.5613849379337559,1.5063353793722625,0.37740999772299777,-0.252765461620981,-0.28082527418219555,0.3117342644929463,-1.1138141645220305,-2.867839890147769,0.07887929827343867,-0.03358801249957795,1.8604207112028717,2.073390543748826,0.9390470234542864,-0.05872286739470314,-2.4782221260329134e-06,0.0,0.0,0.0,0.0,0.0,0.0
1,1735835705.9502432,-1.9921426342123052,-1.8200361358907093,-1.3027594463945888,-1.5394155286343727,1.5042430391971289,0.3158099977229978,-0.27367752373684684,-0.2752306635903215,0.30438210181765224,-1.1090844681315999,-2.8644554063990526,0.07158067083094638,-0.03441611028467102,1.9395596280635703,2.0735702081854446,0.9381022448771498,-0.060075018602656585,-2.5713487427039427e-06,0.0,0.0,0.0,0.0,0.0,0.0
1,1735835706.050549,-2.0543404862776145,-1.8679518490194233,-1.2784276790652171,-1.516447509821381,1.5020555926503985,0.25140999772299755,-0.2956488391540287,-0.2675245058795222,0.29616415129149953,-1.1042753372960474,-2.861243970465357,0.0632936926115995,-0.03513024322282473,2.020587523100123,2.072851296275744,0.9371393080217071,-0.061459841280761866,-2.6686989544805584e-06,0.0,0.0,0.0,0.0,0.0,0.0
1,1735835706.1506984,-2.1165383383429246,-1.9158675621481382,-1.2540959117358454,-1.4934794910083902,1.4998681461036678,0.18700999772299753,-0.31755314504397597,-0.25787204997710783,0.28741268022131916,-1.0996144714891694,-2.8583951278689352,0.05437826763461993,-0.03568082145578839,2.099681605841426,2.0712075952174205,0.9362029114268807,-0.06281577009818597,-2.766038892622406e-06,0.0,0.0,0.0,0.0,0.0,0.0
1,1735835706.2512307,-2.180088317627046,-1.9648249212144329,-1.2292351929427925,-1.470012167438595,1.4976331463711388,0.12120999772299745,-0.3396688608081693,-0.24596799903890476,0.2779316264303583,-1.095014773418451,-2.855886959505389,0.04466830543844541,-0.036066483818649846,2.1783037111837156,2.068575942665368,0.9352747866276546,-0.064171966628277,-2.8654836391612793e-06,0.0,0.0,0.0,0.0,0.0,0.0
1,1735835706.351777,-2.2436382969111666,-2.0137822802807275,-1.2043744741497395,-1.4465448438687991,1.4953981466386097,0.05540999772299737,-0.36131214289313296,-0.23198865030402435,0.26791865234376405,-1.0905879110495247,-2.85381228440592,0.034403510518193195,-0.03626647891224983,2.2545178490250932,2.0649855702107685,0.9343767773699132,-0.06549935444529362,-2.9649163091356095e-06,0.0,0.0,0.0,0.0,0.0,0.0
1,1735835706.452703,-2.305836148976477,-2.0616979934094415,-1.1800427068203678,-1.4235768250558074,1.493210700091879,-0.008990002277002418,-0.3818357017413113,-0.2163065738260419,0.2576176742263114,-1.0864300154686264,-2.8522251852664784,0.02387333493601774,-0.036277028659086365,2.3265967953884323,2.0605475741142496,0.9335281184069748,-0.06677136112432373,-3.062221039973079e-06,0.0,0.0,0.0,0.0,0.0,0.0
1,1735835706.555258,-2.3609979471082374,-2.104193301642434,-1.1584634401247538,-1.4032070345376662,1.4912707056896919,-0.06610483312285176,-0.39933130533652644,-0.20076657048765909,0.2480792676534014,-1.0828923122881635,-2.851201788409323,0.0141781989138256,0.1425812401418075,2.486344301375097,2.091788702525603,0.9503704965019049,-0.027111033203063233,0.022716896322315133,0.0,0.0,0.0,0.0,0.0,0.0
1,1735835706.6556478,-2.370514797180658,-2.113149425470419,-1.153683581797818,-1.399355987901533,1.4910670419658634,-0.0758088427988497,-0.402481360831828,-0.1981530808104064,0.2460505264815701,-1.0825698985216479,-2.8511920604236,0.012251786901460886,-0.028412505331497494,2.249848976871796,2.0572998515935783,0.950430150555886,-0.06924710447280873,-0.0040798901159599015,0.0,0.0,0.0,0.0,0.0,0.0
1,1735835706.7561665,-2.373422815265916,-2.1246310254704195,-1.1465339887212425,-1.3963666791086151,1.491710162960363,-0.07796774819901753,-0.4045622983210127,-0.19851929705330607,0.24355258609937297,-1.083945553862769,-2.8518882013720748,0.01046634367090828,-0.029870826320853423,2.264696635342564,2.0539168840612527,0.9481313282116303,-0.06894861147739513,-0.004078936104112544,0.0,0.0,0.0,0.0,0.0,0.0
1,1735835706.8567317,-2.378611536498308,-2.145117425470419,-1.1337771060912996,-1.391032912416235,1.4928576714906827,-0.08181984194814707,-0.40825105538194395,-0.19911054530174158,0.2390296384388551,-1.0864084970260095,-2.853137681476432,0.007299474613894182,-0.032492093255547916,2.290836478725554,2.0478170607502126,0.9440196701339897,-0.0684076031618681,-0.004077255102824732,0.0,0.0,0.0,0.0,0.0,0.0
1,1735835706.9575596,-2.384607500209216,-2.1687910254704192,-1.1190355538113366,-1.384869337597392,1.4941837052469003,-0.0862712305073563,-0.4124725092244601,-0.1996938277372882,0.23369917899202358,-1.0892680142052937,-2.854593237637308,0.00367022109587251,-0.035546441346469455,2.3204669165057763,2.040668696647902,0.9392544379169461,-0.06776836828381151,-0.0040753464774629985,0.0,0.0,0.0,0.0,0.0,0.0
1,1735835707.05804,-2.393355261134164,-2.203329425470419,-1.097528489855442,-1.375877041853479,1.4961183110645937,-0.09276554648014468,-0.4185452860642734,-0.2003508911627289,0.22572650545476003,-1.0934656743859805,-2.8567390734214757,-0.0015658349944861045,-0.040036339741157695,2.3625521555185443,2.0300538298524895,0.9322807764579949,-0.06680703114746427,-0.004072627154580495,0.0,0.0,0.0,0.0,0.0,0.0
1,1735835707.158538,-2.405016510914179,-2.2493710254704187,-1.0688583825015492,-1.3638898136169946,1.4986972477616007,-0.10142282933901292,-0.4264650236673669,-0.20086544209474214,0.21474697337800447,-1.09910903726099,-2.859640152386454,-0.00843596312185878,-0.046047360437248865,2.41645793934995,2.0155745627825143,0.922957801125176,-0.06546842258591015,-0.004069122677035027,0.0,0.0,0.0,0.0,0.0,0.0
1,1735835707.25935,-2.4186867489408033,-2.303344625470419,-1.0352490182249792,-1.3498374378971096,1.5017204810486624,-0.11157158007989487,-0.435462257428898,-0.2009376764740034,0.20138390155155234,-1.1057940631319545,-2.8630990432555925,-0.016327426062674674,-0.05306223231171991,2.476299737035066,1.9981480991585197,0.9120141560664791,-0.0638086454559576,-0.004065190046908742,0.0,0.0,0.0,0.0,0.0,0.0
1,1735835707.3600583,-2.432469982003117,-2.3577643588037525,-1.0013618466923457,-1.3356689084794686,1.504768703685032,-0.12180421805448294,-0.4441812532004295,-0.2004259714814857,0.18739851693129936,-1.112610327540951,-2.866648638846225,-0.024103748716741584,-0.017586317962943528,2.691740793645568,2.0189853772344324,0.918490261813526,-0.053831223538422984,1.0069656831471626e-05,0.0,0.0,0.0,0.0,0.0,0.0
1,1735835707.4605772,-2.446298872354208,-2.4123643588037527,-0.9673624230944995,-1.3214534454696683,1.5078270236317015,-0.13207075188680406,-0.45253215742807024,-0.19932065350520514,0.17287924172106964,-1.1195259519222078,-2.8702712731300375,-0.03172052202860813,-0.01739533631097561,2.750613901525962,2.009378991380545,0.9136574388451513,-0.05125746184438853,9.77918100258729e-06,0.0,0.0,0.0,0.0,0.0,0.0
1,1735835707.5611076,-2.4615461104336167,-2.4725643588037527,-0.9298758791276445,-1.305779986253735,1.5111990174190553,-0.14339026354808126,-0.46122991027443505,-0.19741556323791756,0.15634149696816907,-1.1272401256925988,-2.8743348755778886,-0.039899364228447455,-0.017072670785687985,2.810436402517744,1.9980285751317945,0.9083235230338015,-0.04840398611988925,9.458619457452484e-06,0.0,0.0,0.0,0.0,0.0,0.0
1,1735835707.6615734,-2.4753750007847084,-2.527164358803753,-0.8958764555297991,-1.2915645232439346,1.5142573373657249,-0.1536567973804024,-0.4686130341574337,-0.19506887672731751,0.14089703912529195,-1.134317735574265,-2.878081811946474,-0.047114990403386285,-0.016681070397058965,2.8598816081407623,1.9870495352150204,0.9034810581034428,-0.04580249629102968,9.167637133913276e-06,0.0,0.0,0.0,0.0,0.0,0.0
1,1735835707.7623904,-2.4892038911358,-2.5817643588037527,-0.8618770319319529,-1.277349060234135,1.5173156573123945,-0.1639233312127235,-0.4754752325192871,-0.19213994298385084,0.12506386333987382,-1.1414724857392278,-2.8818855212408203,-0.054134618907507655,-0.016198789225749962,2.9045750736257303,1.9754231723983244,0.8986341901919189,-0.043189027730206664,8.87645043135917e-06,0.0,0.0,0.0,0.0,0.0,0.0
1,1735835707.8627772,-2.502323607622733,-2.6335643588037527,-0.8296211685186119,-1.2638625953274012,1.5202171403387221,-0.17366337613056615,-0.48146994301809254,-0.1888310064854858,0.10971492389469102,-1.1483316688741687,-2.8855452250358216,-0.06061002083010954,-0.015661155185560084,2.9424431100404704,1.9637981695841626,0.8940318189810114,-0.04069926111900261,8.600028856932896e-06,0.0,0.0,0.0,0.0,0.0,0.0
1,1735835707.9633014,-2.5157927155934385,-2.6867438458435386,-0.7965062984346956,-1.2500169720509504,1.5231958928289684,-0.1836628084177354,-0.4870691477658839,-0.18490724736060443,0.09365802124284651,-1.1554458026253773,-2.889352639788205,-0.06706815186542706,0.0395004132719224,3.148535699871458,2.0021495430469596,0.9164573715010644,-0.029109999655510855,0.004073160941604369,0.0,0.0,0.0,0.0,0.0,0.0
1,1735835708.0639613,-2.527820534884794,-2.734232756134608,-0.7669349508671841,-1.2376529272227748,1.525855897986272,-0.19259223157090943,-0.49156800642625414,-0.18096258401732393,0.07909063698511784,-1.1618605727899296,-2.8927944332099402,-0.07267022166364735,0.04508801687034883,3.1798574642685566,1.9972816395420638,0.9171742680688497,-0.02658197872976014,0.0040701201141625796,0.0,0.0,0.0,0.0,0.0,0.0
1,1735835708.1644928,-2.5379031915773145,-2.774041666425676,-0.7421459398057433,-1.2272884200487244,1.528085721876352,-0.20007757084437294,-0.4949584424826223,-0.17734338914854902,0.06673173801192177,-1.167282921078405,-2.895709154193744,-0.07724466741549588,0.04950789340424402,3.2029325000473805,1.9926106470236595,0.9176495630789159,-0.024542784460737564,0.004067684679834293,0.0,0.0,0.0,0.0,0.0,0.0
1,1735835708.2650218,-2.5458609549878313,-2.8054609539594684,-0.7225811473880892,-1.2191082054016382,1.5298456162678309,-0.2059853946255652,-0.49738049877840584,-0.17429054401302813,0.056892982154910135,-1.1715914845434026,-2.898028159993856,-0.08077579477006011,0.052807614195689856,3.2190627545902037,1.9885372140384263,0.9179355874319537,-0.022986888931916583,0.004065835708399823,0.0,0.0,0.0,0.0,0.0,0.0
1,1735835708.3655803,-2.5526190276606995,-2.832143555279643,-0.7059658897877759,-1.2121612176347476,1.5313401937741773,-0.21100257098431818,-0.4992568515386346,-0.1715648955450035,0.04848502885662061,-1.1752705550709217,-2.900010139524757,-0.08371913609323343,0.05546934678730889,3.2313016875579508,1.9848061854701884,0.9181121690442019,-0.021703737594912297,0.004064316207214572,0.0,0.0,0.0,0.0,0.0,0.0
1,1735835708.4658215,-2.5570234535889775,-2.84953335659982,-0.6951372593598091,-1.2076336704293507,1.5323142519471833,-0.21427240584862073,-0.5003887319834106,-0.16972395847623792,0.04298172239225574,-1.1776782190533548,-2.9013079652599383,-0.08560978252013904,0.05713111371872097,3.238550399080177,1.9822388700074414,0.9181927381201269,-0.020886740138079955,0.004063350986377529,0.0,0.0,0.0,0.0,0.0,0.0
1,1735835708.5661948,-2.5591115265835715,-2.857777603434548,-0.690003566312571,-1.205487227463732,1.5327760384772182,-0.215822586051015,-0.500899928076726,-0.1688336385852662,0.0403666246633326,-1.17882238871802,-2.901924910722914,-0.08649845727391661,0.05789818601834704,3.241785113806139,1.9809840656406261,0.9182210913479179,-0.020504798794539467,0.004062900306169056,0.0,0.0,0.0,0.0,0.0,0.0
1,1735835708.6663725,-2.5592364913533174,-2.8582709963427955,-0.6896963305160941,-1.205358769430097,1.5328036749858784,-0.21591535958554164,-0.5009299999999998,-0.16878000000000046,0.04021000000000001,-1.1788909194860417,-2.9019618667855234,-0.08655148522803799,8.458887382026139e-17,3.0655659521510654,1.927260615361201,0.8884354694862813,-0.029798014248769534,0.0,0.0,0.0,0.0,0.0,0.0,0.0
1,1735835708.7685194,-2.5592364913533174,-2.8582709963427955,-0.6896963305160941,-1.205358769430097,1.5328036749858784,-0.21591535958554164,-0.5009299999999998,-0.16878000000000046,0.04021000000000001,-1.1788909194860417,-2.9019618667855234,-0.08655148522803799,8.458887382026139e-17,3.0655659521510654,1.927260615361201,0.8884354694862813,-0.029798014248769534,0.0,0.0,0.0,0.0,0.0,0.0,0.0
1,1735835708.869198,-2.5592325142511654,-2.8582306523427956,-0.6897275317145208,-1.2053638082823195,1.532805284518002,-0.21591015161151006,-0.5009279235542844,-0.16878124423413313,0.040221553391347434,-1.1788924657586808,-2.9019600894866246,-0.08654466999305617,0.0012269604540536229,3.075553371988932,1.9295425784004199,0.8900072588940897,-0.029485576493900028,0.00018293887695937692,0.0,0.0,0.0,0.0,0.0,0.0
1,1735835708.9696598,-2.559171256935272,-2.8576092538827953,-0.6902081081732838,-1.2054414192036766,1.532830075336534,-0.21582993579149345,-0.500895898834377,-0.16880037912971937,0.040399491614832736,-1.1789162819769223,-2.9019327179941197,-0.08643969702312787,0.005000584046921032,3.106159186762115,1.9366559771234313,0.8948843307051932,-0.028506607605719637,0.0007470204563817582,0.0,0.0,0.0,0.0,0.0,0.0
1,1735835709.0701923,-2.55884573465527,-2.8543071333027954,-0.6927618985620558,-1.205853844784274,1.532961814111796,-0.2154036677410076,-0.5007243881880464,-0.16890113508558766,0.04134464991245089,-1.1790428339766328,-2.90178737112512,-0.08588182778675355,0.012148979583104642,3.1642036689221293,1.950555507505309,0.9043174379276683,-0.02655398204761016,0.0018336180894998764,0.0,0.0,0.0,0.0,0.0,0.0
1,1735835709.170753,-2.5580445057157086,-2.8461794113827956,-0.6990477072171437,-1.2068689744110035,1.5332860712385334,-0.21435446675218994,-0.5002927138349202,-0.16914247986048309,0.04366805901251408,-1.1793542692584706,-2.901430376966177,-0.08450841267348667,0.020703702253817347,3.235439674672456,1.9680762976272004,0.9160218599976674,-0.02395974298196266,0.003206295982081415,0.0,0.0,0.0,0.0,0.0,0.0
1,1735835709.271111,-2.5561886612405478,-2.8273535963427956,-0.7136071953839735,-1.209220265803908,1.5340371309762364,-0.2119242576542799,-0.49924108101229003,-0.16966510281016303,0.04903282546876743,-1.1800753306169698,-2.900607626392707,-0.08132563768311635,0.01778380663026683,3.2159042607990314,1.9664326036436626,0.9140521801796556,-0.023686745318556832,0.0030224723347927257,0.0,0.0,0.0,0.0,0.0,0.0
1,1735835709.3713572,-2.553217545903075,-2.7972143963427953,-0.7369162167902363,-1.2129845671846695,1.5352395405185848,-0.20803361292585176,-0.4974083415014966,-0.17039568722501125,0.05756933184191901,-1.1812288545342537,-2.899302467481441,-0.0762255521092276,0.015309530296295155,3.199597597838045,1.9677351093652766,0.9136704710987699,-0.022760161123954847,0.0030212098206926488,0.0,0.0,0.0,0.0,0.0,0.0
1,1735835709.4719229,-2.549534763505949,-2.7598559963427953,-0.7658084151665605,-1.2176505263575423,1.5367299615200336,-0.2032110475617248,-0.494885662220655,-0.17111940159490574,0.06805291633080461,-1.1826572429589315,-2.8977052168905324,-0.0698960852519201,0.012200417631792445,3.1770865424349273,1.9690409723011897,0.9130964152248061,-0.02163491577207591,0.003019667642256703,0.0,0.0,0.0,0.0,0.0,0.0
1,1735835709.572361,-2.5446264374356184,-2.7100655963427953,-0.804315260053829,-1.2238692073931592,1.5387163597017153,-0.1967836454645795,-0.4911012293911232,-0.17177015571125348,0.08183766646719401,-1.1845585650562114,-2.895611736480741,-0.061447259017779705,0.008005399403123656,3.1431956619507018,1.9702689197592755,0.9121730860891536,-0.02017551592090643,0.003017651428683257,0.0,0.0,0.0,0.0,0.0,0.0
1,1735835709.672868,-2.5387187556832913,-2.6501376630094615,-0.8506622593404636,-1.2313540378529213,1.5411071968471342,-0.1890475974636736,-0.48592585078422024,-0.17207748297690065,0.09810855039521939,-1.1868435040173766,-2.893145441876314,-0.051258993973634766,-0.011423039988673387,2.9392610768813237,1.9423724167191894,0.8913673763682662,-0.023774431569542436,-5.507769225465584e-06,0.0,0.0,0.0,0.0,0.0,0.0
1,1735835709.7739873,-2.53238006973535,-2.5858375932300506,-0.9003905767116116,-1.239384935867922,1.5436724612694288,-0.18074715393747542,-0.47964921365185487,-0.17183047210748986,0.11512617966363405,-1.1892910867659752,-2.890564037486722,-0.04030488953209665,-0.023713400668622413,2.7354975719049994,1.9271304236483455,0.8792042486348218,-0.02717918519988693,-0.0030252150593218655,0.0,0.0,0.0,0.0,0.0,0.0
1,1735835709.8743854,-2.5265596573888924,-2.5267949268010987,-0.9460529292516666,-1.2467591989791647,1.5460279805108108,-0.17312538431870284,-0.47325693924551687,-0.17108135036778982,0.13030350926121015,-1.191535031514162,-2.88825271912932,-0.030226660785228454,-0.018726061037176805,2.6916069694821374,1.9455117395040535,0.8899093265081108,-0.025246650587592102,-0.003022815188680796,0.0,0.0,0.0,0.0,0.0,0.0
1,1735835709.9748394,-2.522058072860709,-2.481130541208039,-0.9813688016468358,-1.2524625524105621,1.547849770504658,-0.16723060605370144,-0.467920105573614,-0.17016246577186214,0.14171940180496553,-1.193268330591915,-2.8865038206476514,-0.022419511529164538,-0.014870259165134164,2.654295059743799,1.959847426746564,0.8982790865492355,-0.023705430781300666,-0.0030210023166077665,0.0,0.0,0.0,0.0,0.0,0.0
1,1735835710.0750933,-2.5186156741021253,-2.446210609505572,-1.0083751400884005,-1.2568239537458235,1.549242908315124,-0.16272282057182874,-0.4636178692620682,-0.1692622010881747,0.15024642464366833,-1.1945925580621903,-2.8851891821883293,-0.01644218260916776,-0.011940771242708067,2.6238372976910425,1.9708632623757927,0.9047197828777209,-0.022499806364717937,-0.003019641450386614,0.0,0.0,0.0,0.0,0.0,0.0
1,1735835710.1754482,-2.5162203608301783,-2.4219123855842932,-1.0271668738276922,-1.2598587336290628,1.5502122909233242,-0.15958618267800695,-0.46051523341595474,-0.1685357661907154,0.1560712021850787,-1.1955133767239638,-2.8842860509378148,-0.012279434033168713,-0.009919168325036198,2.6016825596831503,1.9785489173544917,0.9092169844885212,-0.021647257625358646,-0.0030187075431378136,0.0,0.0,0.0,0.0,0.0,0.0
1,1735835710.275983,-2.5145083236447596,-2.4045453616630135,-1.0405981637207278,-1.2620278261108338,1.5509051518912709,-0.1573442877349489,-0.4582443336769417,-0.16796668257339112,0.16017810194140822,-1.1961712252757435,-2.8836463882162446,-0.00930237201526517,-0.00848529340983707,2.5853728815000614,1.9840500438255322,0.9124373282828457,-0.021031121377001954,-0.0030180465873689373,0.0,0.0,0.0,0.0,0.0,0.0
1,1735835710.3766184,-2.513596572951853,-2.395296499413515,-1.0477510386529465,-1.263182983014012,1.5512741371405365,-0.1561503596560696,-0.4570171730819748,-0.16764675361818865,0.16234569531268386,-1.196521463597859,-2.883307721830035,-0.007716336854543693,-0.007726027612138442,2.5765276634300114,1.986981788107579,0.9141539516683637,-0.020700708776428843,-0.0030176968217970885,0.0,0.0,0.0,0.0,0.0,0.0
1,1735835710.4768746,-2.5131340667039375,-2.3906048039645547,-1.0513794969282655,-1.2637689625906638,1.5514613132891277,-0.15554471251991853,-0.4563899999999999,-0.1674800000000005,0.16344000000000014,-1.1966991033863013,-2.8831364537029796,-0.006911628484903797,4.30053644341894e-17,2.7189903483008964,2.005454183818944,0.9265060113025555,-0.015179730603983609,0.0,0.0,0.0,0.0,0.0,0.0,0.0
1,1735835710.5774064,-2.5131340667039375,-2.3906048039645547,-1.0513794969282655,-1.2637689625906638,1.5514613132891277,-0.15554471251991853,-0.4563899999999999,-0.1674800000000005,0.16344000000000014,-1.1966991033863013,-2.8831364537029796,-0.006911628484903797,4.30053644341894e-17,2.7189903483008964,2.005454183818944,0.9265060113025555,-0.015179730603983609,0.0,0.0,0.0,0.0,0.0,0.0,0.0
1,1735835710.6779509,-2.5131340667039375,-2.3906048039645547,-1.0513794969282655,-1.2637689625906638,1.5514613132891277,-0.15554471251991853,-0.4563899999999999,-0.1674800000000005,0.16344000000000014,-1.1966991033863013,-2.8831364537029796,-0.006911628484903797,4.30053644341894e-17,2.7189903483008964,2.005454183818944,0.9265060113025555,-0.015179730603983609,0.0,0.0,0.0,0.0,0.0,0.0,0.0
1,1735835710.7787037,-2.5131340667039375,-2.3906048039645547,-1.0513794969282655,-1.2637689625906638,1.5514613132891277,-0.15554471251991853,-0.4563899999999999,-0.1674800000000005,0.16344000000000014,-1.1966991033863013,-2.8831364537029796,-0.006911628484903797,4.30053644341894e-17,2.7189903483008964,2.005454183818944,0.9265060113025555,-0.015179730603983609,0.0,0.0,0.0,0.0,0.0,0.0,0.0
1,1735835710.879034,-2.5131340667039375,-2.3906048039645547,-1.0513794969282655,-1.2637689625906638,1.5514613132891277,-0.15554471251991853,-0.4563899999999999,-0.1674800000000005,0.16344000000000014,-1.1966991033863013,-2.8831364537029796,-0.006911628484903797,4.30053644341894e-17,2.7189903483008964,2.005454183818944,0.9265060113025555,-0.015179730603983609,0.0,0.0,0.0,0.0,0.0,0.0,0.0
1,1735835710.9796045,-2.5131340667039375,-2.3906048039645547,-1.0513794969282655,-1.2637689625906638,1.5514613132891277,-0.15554471251991853,-0.4563899999999999,-0.1674800000000005,0.16344000000000014,-1.1966991033863013,-2.8831364537029796,-0.006911628484903797,4.30053644341894e-17,2.7189903483008964,2.005454183818944,0.9265060113025555,-0.015179730603983609,0.0,0.0,0.0,0.0,0.0,0.0,0.0
1,1735835711.0797563,-2.5131340667039375,-2.3906048039645547,-1.0513794969282655,-1.2637689625906638,1.5514613132891277,-0.15554471251991853,-0.4563899999999999,-0.1674800000000005,0.16344000000000014,-1.1966991033863013,-2.8831364537029796,-0.006911628484903797,4.30053644341894e-17,2.7189903483008964,2.005454183818944,0.9265060113025555,-0.015179730603983609,0.0,0.0,0.0,0.0,0.0,0.0,0.0
1,1735835711.1802886,-2.5131340667039375,-2.3906048039645547,-1.0513794969282655,-1.2637689625906638,1.5514613132891277,-0.15554471251991853,-0.4563899999999999,-0.1674800000000005,0.16344000000000014,-1.1966991033863013,-2.8831364537029796,-0.006911628484903797,4.30053644341894e-17,2.7189903483008964,2.005454183818944,0.9265060113025555,-0.015179730603983609,0.0,0.0,0.0,0.0,0.0,0.0,0.0
1,1735835711.2829692,-2.5131340667039375,-2.3906048039645547,-1.0513794969282655,-1.2637689625906638,1.5514613132891277,-0.15554471251991853,-0.4563899999999999,-0.1674800000000005,0.16344000000000014,-1.1966991033863013,-2.8831364537029796,-0.006911628484903797,4.30053644341894e-17,2.7189903483008964,2.005454183818944,0.9265060113025555,-0.015179730603983609,0.0,0.0,0.0,0.0,0.0,0.0,0.0
1,1735835711.383774,-2.5130937227039376,-2.390565948566677,-1.0514139267144058,-1.2637734911078926,1.5514575685476493,-0.15551181820822357,-0.4563784402089113,-0.16749449555553075,0.1634478167534893,-1.1966871126660847,-2.8831378495174795,-0.006913667361068406,0.012063514606312617,2.726650944304226,2.006425744514883,0.9275629209779919,-0.012681099287726738,0.0010803159026046975,0.0,0.0,0.0,0.0,0.0,0.0
1,1735835711.4843752,-2.5123325252039375,-2.3898328375284486,-1.0520635367465205,-1.2638589337014174,1.5513869139806353,-0.15489117900967564,-0.45616021254322964,-0.16776783917327626,0.1635952541555778,-1.1964608678511417,-2.883164154768014,-0.0069520663205391645,0.05418110736447812,2.7527204522996587,2.009815185290578,0.9312285352323307,-0.003999377289454539,0.0048569597763224335,0.0,0.0,0.0,0.0,0.0,0.0
1,1735835711.584589,-2.5086488677439376,-2.386285098676209,-1.0552071897943698,-1.264272415415478,1.5510449958544406,-0.15188772430350372,-0.45510090192207425,-0.16908649515502616,0.16430749530641306,-1.1953657949898038,-2.8832906366809676,-0.007136012552660662,0.12788761645164268,2.7958981569077728,2.0154851204273325,0.9373834024621994,0.01105975843998333,0.011520575035494316,0.0,0.0,0.0,0.0,0.0,0.0
1,1735835711.6854029,-2.4992260292039377,-2.377209941512508,-1.0632486907800924,-1.2653301064394524,1.550170365318888,-0.14420485230311364,-0.45236698042758866,-0.17242831644693157,0.1661199307324567,-1.192563046065511,-2.8836080699778806,-0.0075923427285914825,0.22264040404446708,2.846893617187037,2.021437804963855,0.9442382260194722,0.030227514119000227,0.02031235779165756,0.0,0.0,0.0,0.0,0.0,0.0
1,1735835711.7859366,-2.4782854667039373,-2.357042038287054,-1.081119479212954,-1.2676806343508886,1.5482266563912226,-0.12713105223525556,-0.4461702019215501,-0.17969202593327424,0.17009833842820513,-1.186326879112423,-2.8842827277118457,-0.008532767718808718,0.1875106586925419,2.8033740976079162,2.0144420467511956,0.9375379645877994,0.021845307901156165,0.017857038581718245,0.0,0.0,0.0,0.0,0.0,0.0
1,1735835711.8865674,-2.4473974667039373,-2.32729373545002,-1.1074794641997103,-1.2711477382612273,1.5453596235043208,-0.10194665059867081,-0.43674042963252124,-0.18998907948137211,0.17583969553376866,-1.1771109403360924,-2.885203436689296,-0.009732035423767884,0.17674566946760686,2.764218404677598,2.00818903909154,0.9318758506449009,0.01788605635903795,0.01785768576871651,0.0,0.0,0.0,0.0,0.0,0.0
1,1735835711.9869275,-2.406789466703937,-2.2881840785733605,-1.1421345493571238,-1.2757058888566375,1.541590377471191,-0.06883708760791585,-0.42386194625683904,-0.2027527761905487,0.18315082972541602,-1.1649677977816058,-2.8862874036583293,-0.01096197602994915,0.1623629152449741,2.7112700767499534,1.9999737330810545,0.9245193615182172,0.012512011397948735,0.017858729656095116,0.0,0.0,0.0,0.0,0.0,0.0
1,1735835712.087345,-2.3589046667039373,-2.2420661191169113,-1.1829996946916816,-1.2810808427975129,1.5371456968061197,-0.029794416166335935,-0.4080561980718338,-0.21664761615997416,0.19141397310688354,-1.1506173906092059,-2.887397346218904,-0.011896307347056401,0.14520552695227598,2.6467508000919806,1.9903247729193625,0.9159979640354498,0.005947501518059954,0.0178602423120531,0.0,0.0,0.0,0.0,0.0,0.0
1,1735835712.1875858,-2.2994007333706037,-2.1847577460013117,-1.2337806707768788,-1.2877600165847616,1.5316225249022513,0.01872186705119888,-0.38763789825536,-0.23213367666445198,0.20112024934429168,-1.132752832054189,-2.888553953690773,-0.012263654178387998,-0.04842496812344329,2.448638503513813,1.9758418827146813,0.8965325177217501,-0.03970032304059207,4.262530182469466e-06,0.0,0.0,0.0,0.0,0.0,0.0
1,1735835712.2881172,-2.2336007333706043,-2.1213856168030203,-1.2899347439486144,-1.2951459087532502,1.5255149503115315,0.07237162189732893,-0.364293908302272,-0.24692910269040377,0.21109762286252032,-1.112978654157924,-2.8895933698479874,-0.011627796058438632,-0.04833830487963247,2.3583554352007354,1.979408336674672,0.8969883258651826,-0.045056573849944194,4.976793587455148e-06,0.0,0.0,0.0,0.0,0.0,0.0
1,1735835712.3885567,-2.172000733370604,-2.0620585171280243,-1.342504514577472,-1.3020603609960908,1.5197972209074537,0.1225969243064719,-0.3419539460134817,-0.25855675423646385,0.21968935711701293,-1.0944697806458714,-2.890388043424234,-0.010028349964988791,-0.04789678944091319,2.270312836089833,1.9827542167219716,0.8974830739491068,-0.05001014660776859,5.645298857939446e-06,0.0,0.0,0.0,0.0,0.0,0.0
1,1735835712.4891217,-2.107600733370603,-2.000034731104165,-1.3974638202349148,-1.3092891065226961,1.5138195947122812,0.17510519500693955,-0.3183477033695313,-0.2684367012331258,0.227869243780188,-1.0751444423583245,-2.891087415639856,-0.007311767935585307,-0.04707660717835594,2.1749840651046566,1.9862569776590138,0.8980680836914123,-0.05512430949360197,6.3439938662083355e-06,0.0,0.0,0.0,0.0,0.0,0.0
1,1735835712.5893173,-2.0502007333706036,-1.9447526609524646,-1.4464492883208964,-1.3157321188398887,1.508491710494845,0.2219060449790955,-0.29729137531331024,-0.27532334625805543,0.23444794142753675,-1.0579577735326426,-2.8916412714939623,-0.003991034063533267,-0.04605137402045398,2.0874931212218097,1.989380895821182,0.8986455707688696,-0.05962574679443755,6.9665540956604294e-06,0.0,0.0,0.0,0.0,0.0,0.0
1,1735835712.6899798,-1.9900007333706036,-1.8867739044519007,-1.497824291435462,-1.322489424440846,1.5029039294863142,0.27098986324257623,-0.27538315648881595,-0.28066579163093774,0.24060813837600006,-1.039986877791,-2.892195526205362,0.0003967475496695848,-0.04469597892321944,1.993495310044652,1.9926567123520569,0.8993054655824265,-0.06428821308359213,7.619270911793272e-06,0.0,0.0,0.0,0.0,0.0,0.0
1,1735835712.7902353,-1.9256007333706036,-1.8247501184280415,-1.5527835970929047,-1.3297181699674523,1.496926303291142,0.32349813394304383,-0.2523482398307473,-0.28434476113835677,0.2463421490027734,-1.0208398020688214,-2.892807405086314,0.0061041546688054196,-0.04295167092073303,1.890770487328289,1.9961576323727852,0.9000697878736411,-0.06920871410968807,8.317262764757737e-06,0.0,0.0,0.0,0.0,0.0,0.0
1,1735835712.8905056,-1.8654007333706035,-1.7667713619274767,-1.6041586002074713,-1.3364754755684096,1.4913385222826112,0.37258195220652457,-0.23136879316357822,-0.2859898279207619,0.250887869905425,-1.0030280193713914,-2.893443079487587,0.01236976938356738,-0.04107050689760064,1.7930752700907284,1.9994241299297506,0.900835724943697,-0.0737448331141369,8.969465583931614e-06,0.0,0.0,0.0,0.0,0.0,0.0
1,1735835712.9910703,-1.8114405011781693,-1.7148021399507485,-1.650208551984032,-1.3425323822000195,1.4863299182849237,0.4165782018807547,-0.21314567535717624,-0.28609150777054465,0.254284612558756,-0.9871435644344512,-2.8941010182785902,0.01873263108800865,-0.15525508837236837,1.6153740008388668,2.0290386397659588,0.9084614462214239,-0.10430949561588648,-0.01785782703447829,0.0,0.0,0.0,0.0,0.0,0.0
1,1735835713.0916314,-1.7635473097926972,-1.6686760987319236,-1.6910808585719916,-1.3479082780537865,1.4818844587290818,0.45562771520338985,-0.19751375557704337,-0.2851748455397261,0.25675772565871474,-0.9731157723796784,-2.8947800169407234,0.024956245367867246,-0.1403902312615823,1.5395193578372335,2.0421621484733175,0.9156851186293006,-0.10412467546081625,-0.017860878711074838,0.0,0.0,0.0,0.0,0.0,0.0
1,1735835713.1919737,-1.7192043962138417,-1.6259693381187352,-1.7289233390241945,-1.352885663739654,1.4777685369623237,0.4917825243624885,-0.18354954696911788,-0.28354733835185497,0.2585906162764493,-0.9601914626983094,-2.895507034666134,0.03118843826442966,-0.1275266474715536,1.4689391935188238,2.0539434273514843,0.922023791675718,-0.10392329823062361,-0.017863975314801404,0.0,0.0,0.0,0.0,0.0,0.0
1,1735835713.2925727,-1.6830174520866414,-1.5911176101776974,-1.7598054713703988,-1.3569475614179307,1.4744096545844048,0.5212873979347512,-0.17254603342381286,-0.28170744366585654,0.2597597559952463,-0.9496920688250463,-2.8961818432509463,0.03660002534960653,-0.11772187976372755,1.4111997141449344,2.063277768999668,0.9269353843895782,-0.1037537183534125,-0.017866695460751144,0.0,0.0,0.0,0.0,0.0,0.0
1,1735835713.3931038,-1.656123307959442,-1.565215798987631,-1.7827570783188786,-1.3599663645864304,1.4719133325280152,0.5432154258864348,-0.16460917949515647,-0.28006388713834324,0.26043822279707274,-0.9419177797965281,-2.8967362714997265,0.04080669788955051,-0.11086021444150132,1.3682566915374128,2.0700441833895438,0.9304280706671499,-0.10363254097620425,-0.017868829442801597,0.0,0.0,0.0,0.0,0.0,0.0
1,1735835713.4936368,-1.6394268554772777,-1.5491354077436679,-1.7970059204828885,-1.3618405013285209,1.4703635630913094,0.5568288085987165,-0.15978871899129,-0.27893215797748533,0.26077770271896955,-0.9371040267844397,-2.8971048799971713,0.04349593423738418,-0.1067888604839216,1.3415994192345684,2.0741691968431493,0.9325271254531706,-0.10356189850836112,-0.01787020245497723,0.0,0.0,0.0,0.0,0.0,0.0
1,1735835713.5942996,-1.6306895724467685,-1.5407205106456212,-1.8044623647171951,-1.362821240390966,1.4695525660118407,0.5639527157812101,-0.15729944356096948,-0.27830735537656165,0.2609304029286769,-0.9345889131598154,-2.8973055637841822,0.044926585534740805,-0.10471696163464521,1.3276535878364408,2.076304233108769,0.9336040934551061,-0.10352683078122077,-0.017870935665638674,0.0,0.0,0.0,0.0,0.0,0.0
1,1735835713.69464,-1.6294918234365117,-1.539566955858005,-1.805484530151288,-1.3629556848443807,1.4694413906103039,0.5649292954281322,-0.15695999999999993,-0.2782199999999998,0.26095000000000024,-0.9342443412536852,-2.897333500783726,0.04512394809786554,-1.4492994982327683e-18,1.4073571037111532,2.043867058943458,0.9247311255126055,-0.0794425394777574,0.0,0.0,0.0,0.0,0.0,0.0,0.0
1,1735835713.7950737,-1.6294918234365117,-1.539566955858005,-1.805484530151288,-1.3629556848443807,1.4694413906103039,0.5649292954281322,-0.15695999999999993,-0.2782199999999998,0.26095000000000024,-0.9342443412536852,-2.897333500783726,0.04512394809786554,-1.4492994982327683e-18,1.4073571037111532,2.043867058943458,0.9247311255126055,-0.0794425394777574,0.0,0.0,0.0,0.0,0.0,0.0,0.0
1,1735835713.895298,-1.6294918234365117,-1.539566955858005,-1.805484530151288,-1.3629556848443807,1.4694413906103039,0.5649292954281322,-0.15695999999999993,-0.2782199999999998,0.26095000000000024,-0.9342443412536852,-2.897333500783726,0.04512394809786554,-1.4492994982327683e-18,1.4073571037111532,2.043867058943458,0.9247311255126055,-0.0794425394777574,0.0,0.0,0.0,0.0,0.0,0.0,0.0
1,1735835713.9999132,-1.6294918234365117,-1.539566955858005,-1.805484530151288,-1.3629556848443807,1.4694413906103039,0.5649292954281322,-0.15695999999999993,-0.2782199999999998,0.26095000000000024,-0.9342443412536852,-2.897333500783726,0.04512394809786554,-1.4492994982327683e-18,1.4073571037111532,2.043867058943458,0.9247311255126055,-0.0794425394777574,0.0,0.0,0.0,0.0,0.0,0.0,0.0
1,1735835714.1004455,-1.6294588785765116,-1.539596748416547,-1.805471258397625,-1.362933525419331,1.4694505574258019,0.5649439474134328,-0.1569504091732692,-0.2782322636117484,0.2609471749739727,-0.9342215610687675,-2.8973522645890566,0.045132432693438945,0.008315190110881164,1.4009199300604884,2.0450500701026835,0.926907731917898,-0.07737442618073366,0.0004592079643228308,0.0,0.0,0.0,0.0,0.0,0.0
1,1735835714.2009325,-1.6287626916765117,-1.5402263212535328,-1.8051908012628708,-1.3624652550599663,1.4696442694908816,0.5652535714405268,-0.15674758696291907,-0.27849132745368177,0.26088743156111605,-0.933740107875042,-2.8977487868876377,0.04531156247447274,0.03951099549603935,1.3776565450328104,2.04940420672349,0.9351219379044124,-0.06948016863902917,0.0021803515139381456,0.0,0.0,0.0,0.0,0.0,0.0
1,1735835714.3019156,-1.6252733299365119,-1.5433818063250317,-1.8037851206967455,-1.360118234919339,1.4706151746723286,0.5668054395292926,-0.15572670996705726,-0.27978720146611386,0.2605866882891852,-0.9313251410413399,-2.899736417731724,0.04620460768328855,0.09564527342715441,1.3394013063320283,2.0566993468451895,0.9498748013920709,-0.05466249931317805,0.005258146374165023,0.0,0.0,0.0,0.0,0.0,0.0
1,1735835714.402761,-1.6155837859365114,-1.5521442143869786,-1.7998817123629856,-1.3536008381528175,1.4733112632915213,0.5711147932875796,-0.1528542999214595,-0.28336282989831757,0.25974017324680243,-0.9246026168007644,-2.9052576309016755,0.04864262765026954,0.17561531826252197,1.2930329835655539,2.0651447993263576,0.9700193482767829,-0.03195608018253516,0.009554251229779744,0.0,0.0,0.0,0.0,0.0,0.0
1,1735835714.5032902,-1.5946432234365115,-1.5710810966253703,-1.791445859635953,-1.3395157631145445,1.479137916458661,0.5804279551567055,-0.14645968524847996,-0.2909718891045168,0.25785361627866665,-0.909990739021164,-2.9171973129290976,0.05369961353006986,0.15922089000215753,1.340633015674119,2.0555881712553146,0.9637750542114276,-0.029468608437771656,0.008383429695828594,0.0,0.0,0.0,0.0,0.0,0.0
1,1735835714.603581,-1.5637552234365115,-1.5990136041012057,-1.779002706829882,-1.3187398265664152,1.4877324163927776,0.5941651670302435,-0.13656919851840268,-0.3018839864881114,0.25492876033305095,-0.8882254752293272,-2.9348204389447807,0.06062234705767306,0.16558652718513628,1.3864713011589405,2.046065599343105,0.962968281530406,-0.018698313677311222,0.008364566345223817,0.0,0.0,0.0,0.0,0.0,0.0
1,1735835714.7045093,-1.5211168234365111,-1.6375721843510647,-1.7618259350542278,-1.2900603169538218,1.499596432385747,0.6131282832808477,-0.12204587321697372,-0.3162901495717284,0.2506143624822103,-0.8577531472061045,-2.959148632719717,0.0691057616973679,0.1745752151732086,1.449221417906371,2.031903728347259,0.9616176385753877,-0.003978549374199896,0.008341080068835662,0.0,0.0,0.0,0.0,0.0,0.0
1,1735835714.805032,-1.474043223436512,-1.6801415861871964,-1.7428624541577022,-1.2583975959394458,1.5126945304205381,0.634063922262011,-0.1048910638202314,-0.3312312029615531,0.24548120586492078,-0.8235168286784535,-2.985968511501186,0.07698896244218854,0.18469948391123509,1.5176503351026496,2.014901967123215,0.9598313842152985,0.012051422296204359,0.008318600414523787,0.0,0.0,0.0,0.0,0.0,0.0
1,1735835714.9055634,-1.4143584901031776,-1.7341154355794055,-1.7188186100416605,-1.2182523540129555,1.5293016411658469,0.6606082704689397,-0.0815573570815654,-0.3485812187763147,0.23842131901854263,-0.7791784175483211,-3.019834520185313,0.08467934362585813,0.029064555239770102,1.725551095302505,1.9765639938105188,0.9267422882644266,-0.011092826327210962,-6.560778320273412e-05,0.0,0.0,0.0,0.0,0.0,0.0
1,1735835715.0058725,-1.350725801846429,-1.7916594831201689,-1.6931843422535273,-1.175451632256638,1.5470072593680708,0.6889084427256658,-0.05490061762296264,-0.36493268596787687,0.23022645200159497,0.7300216915151359,3.0527336992026455,-0.0898637984799764,-0.1458571041285611,1.9391540625945052,1.9518082861567723,0.9081281661678223,-0.043304871916141865,-0.00840519428906463,0.0,0.0,0.0,0.0,0.0,0.0
1,1735835715.106223,-1.29426124861497,-1.8427212726584177,-1.6704377395603904,-1.137472353081705,1.562718363972697,0.7140206394067462,-0.029880508001075796,-0.3774345936214688,0.22238949454947066,0.6770000205968153,3.043645621987553,-0.09072401695774296,-0.15801357317170128,2.0179047184439103,1.9503218315412596,0.9245801478031662,-0.03795773603628345,-0.008377458068889813,0.0,0.0,0.0,0.0,0.0,0.0
1,1735835715.2067866,-1.2545583096945787,-1.8786252689743472,-1.6544435108684539,-1.1107672980511332,1.573765596099592,0.7316782308322688,-0.01161176783207688,-0.3850261481438867,0.21656757820748557,0.6398644251001878,3.0367502896569696,-0.08983488491218293,-0.16658181970621408,2.0720899706242752,1.9489680409008328,0.9362546030174839,-0.03396773661499841,-0.008361088113861877,0.0,0.0,0.0,0.0,0.0,0.0
1,1735835715.3075216,-1.2177209564631202,-1.9119378707785337,-1.6396036761355388,-1.0859896979042203,1.584015486993169,0.7480613740011663,0.005776455293264449,-0.391146634163728,0.21094061210072046,0.6055295391472905,3.0300120804531594,-0.08792324223686088,-0.1744810793040815,2.1214397442350523,1.9474824664972017,0.9471397400694931,-0.030087216245314578,-0.008348215248566639,0.0,0.0,0.0,0.0,0.0,0.0
1,1735835715.4080164,-1.191486803231661,-1.9356618309332827,-1.6290353137489504,-1.0683440393011798,1.5913150670313512,0.7597288215945169,0.018387810972450024,-0.3949484266492822,0.206803409063624,0.5811529930034307,3.0250277713043663,-0.08593240605383501,-0.1800460817268363,2.156021536976027,1.946288509815743,0.9549112936556499,-0.02721542281368035,-0.00834040691994899,0.0,0.0,0.0,0.0,0.0,0.0
1,1735835715.5082333,-1.1760780234732122,-1.9495962344490945,-1.6228279257312908,-1.0579797609229864,1.5956025170643353,0.7665817635866985,0.025874816319957736,-0.39696133569875847,0.2043237420487246,0.5668657958272646,3.0220323364655335,-0.08452158405229651,-0.18328189306381923,2.1761089898223758,1.9455339789248893,0.9594800325348622,-0.025485739730329738,-0.008336347730271913,0.0,0.0,0.0,0.0,0.0,0.0
1,1735835715.608625,-1.1708260437147633,-1.954345682903699,-1.6207121789471417,-1.0544471657982255,1.597063865798082,0.7689175431353046,0.02843927488450952,-0.3976098195700747,0.20347024163679875,0.5620013734052055,3.021000292247288,-0.08400015016505154,-0.18437829032162645,2.182917134304025,1.9452677349398253,0.9610375862438956,-0.024888841727521763,-0.008335053300881603,0.0,0.0,0.0,0.0,0.0,0.0
1,1735835715.7091851,-1.1708245604753298,-1.9543470242206036,-1.6207115814278819,-1.054446168139318,1.5970642785053215,0.7689182027951837,0.028440000000000007,-0.39761000000000013,0.20347000000000015,0.5619999999999991,3.0209999999999995,-0.08399999999999724,4.764345080552988e-17,2.0564217562144873,1.955500855175356,0.9831345742994166,0.020551286331034656,0.0,0.0,0.0,0.0,0.0,0.0,0.0
1,1735835715.80975,-1.1708245604753298,-1.9543470242206036,-1.6207115814278819,-1.054446168139318,1.5970642785053215,0.7689182027951837,0.028440000000000007,-0.39761000000000013,0.20347000000000015,0.5619999999999991,3.0209999999999995,-0.08399999999999724,4.764345080552988e-17,2.0564217562144873,1.955500855175356,0.9831345742994166,0.020551286331034656,0.0,0.0,0.0,0.0,0.0,0.0,0.0
1,1735835715.909966,-1.1708245604753298,-1.9543470242206036,-1.6207115814278819,-1.054446168139318,1.5970642785053215,0.7689182027951837,0.028440000000000007,-0.39761000000000013,0.20347000000000015,0.5619999999999991,3.0209999999999995,-0.08399999999999724,4.764345080552988e-17,2.0564217562144873,1.955500855175356,0.9831345742994166,0.020551286331034656,0.0,0.0,0.0,0.0,0.0,0.0,0.0
1,1735835716.0107136,-1.1708245604753298,-1.9543470242206036,-1.6207115814278819,-1.054446168139318,1.5970642785053215,0.7689182027951837,0.028440000000000007,-0.39761000000000013,0.20347000000000015,0.5619999999999991,3.0209999999999995,-0.08399999999999724,4.764345080552988e-17,2.0564217562144873,1.955500855175356,0.9831345742994166,0.020551286331034656,0.0,0.0,0.0,0.0,0.0,0.0,0.0
1,1735835716.1112778,-1.1708245604753298,-1.9543470242206036,-1.6207115814278819,-1.054446168139318,1.5970642785053215,0.7689182027951837,0.028440000000000007,-0.39761000000000013,0.20347000000000015,0.5619999999999991,3.0209999999999995,-0.08399999999999724,4.764345080552988e-17,2.0564217562144873,1.955500855175356,0.9831345742994166,0.020551286331034656,0.0,0.0,0.0,0.0,0.0,0.0,0.0
1,1735835716.211805,-1.1708245604753298,-1.9543470242206036,-1.6207115814278819,-1.054446168139318,1.5970642785053215,0.7689182027951837,0.028440000000000007,-0.39761000000000013,0.20347000000000015,0.5619999999999991,3.0209999999999995,-0.08399999999999724,4.764345080552988e-17,2.0564217562144873,1.955500855175356,0.9831345742994166,0.020551286331034656,0.0,0.0,0.0,0.0,0.0,0.0,0.0
1,1735835716.3121467,-1.1708245604753298,-1.9543470242206036,-1.6207115814278819,-1.054446168139318,1.5970642785053215,0.7689182027951837,0.028440000000000007,-0.39761000000000013,0.20347000000000015,0.5619999999999991,3.0209999999999995,-0.08399999999999724,4.764345080552988e-17,2.0564217562144873,1.955500855175356,0.9831345742994166,0.020551286331034656,0.0,0.0,0.0,0.0,0.0,0.0,0.0
1,1735835716.4125466,-1.1708245604753298,-1.9543470242206036,-1.6207115814278819,-1.054446168139318,1.5970642785053215,0.7689182027951837,0.028440000000000007,-0.39761000000000013,0.20347000000000015,0.5619999999999991,3.0209999999999995,-0.08399999999999724,4.764345080552988e-17,2.0564217562144873,1.955500855175356,0.9831345742994166,0.020551286331034656,0.0,0.0,0.0,0.0,0.0,0.0,0.0
1,1735835716.513126,-1.1708245604753298,-1.9543470242206036,-1.6207115814278819,-1.054446168139318,1.5970642785053215,0.7689182027951837,0.028440000000000007,-0.39761000000000013,0.20347000000000015,0.5619999999999991,3.0209999999999995,-0.08399999999999724,4.764345080552988e-17,2.0564217562144873,1.955500855175356,0.9831345742994166,0.020551286331034656,0.0,0.0,0.0,0.0,0.0,0.0,0.0
1,1735835716.613641,-1.1708245604753298,-1.9543470242206036,-1.6207115814278819,-1.054446168139318,1.5970642785053215,0.7689182027951837,0.028440000000000007,-0.39761000000000013,0.20347000000000015,0.5619999999999991,3.0209999999999995,-0.08399999999999724,4.764345080552988e-17,2.0564217562144873,1.955500855175356,0.9831345742994166,0.020551286331034656,0.0,0.0,0.0,0.0,0.0,0.0,0.0
1,1735835716.7141728,-1.1708245604753298,-1.9543470242206036,-1.6207115814278819,-1.054446168139318,1.5970642785053215,0.7689182027951837,0.028440000000000007,-0.39761000000000013,0.20347000000000015,0.5619999999999991,3.0209999999999995,-0.08399999999999724,4.764345080552988e-17,2.0564217562144873,1.955500855175356,0.9831345742994166,0.020551286331034656,0.0,0.0,0.0,0.0,0.0,0.0,0.0
1,1735835716.8172114,-1.1708245604753298,-1.9543470242206036,-1.6207115814278819,-1.054446168139318,1.5970642785053215,0.7689182027951837,0.028440000000000007,-0.39761000000000013,0.20347000000000015,0.5619999999999991,3.0209999999999995,-0.08399999999999724,4.764345080552988e-17,2.0564217562144873,1.955500855175356,0.9831345742994166,0.020551286331034656,0.0,0.0,0.0,0.0,0.0,0.0,0.0
1,1735835716.9177794,-1.1708303287245894,-1.9543736375806038,-1.6207035972942956,-1.054430618731141,1.5970640974418082,0.7689286434069648,0.028439280484078497,-0.39761393006240947,0.2034636840919989,0.562024890767616,3.0209972310656603,-0.08399600741562913,-0.0009713601820944042,2.0498026622803303,1.9540795510367608,0.9828966287395154,0.02012211341640667,0.0005273756567107436,0.0,0.0,0.0,0.0,0.0,0.0
1,1735835717.0180933,-1.1709610771122865,-1.9549768802206033,-1.620522621655648,-1.0540781616930541,1.597059993291418,0.7691652998161522,0.028422945527448926,-0.39770298099063456,0.20332048762409063,0.5625890855335818,3.0209344146349184,-0.08390551020113574,-0.004783871096397378,2.0245168215798337,1.9482402299842922,0.9819119924401337,0.018438323526003792,0.0025911845486109504,0.0,0.0,0.0,0.0,0.0,0.0
1,1735835717.1188033,-1.1716310462019504,-1.9580679617206034,-1.6195952826191133,-1.0522721331437843,1.5970389631743422,0.7703779532325217,0.028338469619490235,-0.39815834095251307,0.20258570198369136,0.565480019939342,3.0206109360717726,-0.08344186278423743,-0.011801759320809966,1.981252506332318,1.9364335684272744,0.9798177122281105,0.0153678284694918,0.006316701666827385,0.0,0.0,0.0,0.0,0.0,0.0
1,1735835717.2193081,-1.1736370096569866,-1.9673230103806034,-1.6168187243473744,-1.0468646787933116,1.5969759966181833,0.7740087751232463,0.028077804604689574,-0.39951220603202797,0.20037539103125993,0.5741351700964181,3.019626391355148,-0.08205435321682543,-0.0228539088704861,1.9225787530360863,1.9153846623270059,0.9755572061151868,0.010709291312128439,0.01181286454255245,0.0,0.0,0.0,0.0,0.0,0.0
1,1735835717.3202095,-1.1781290900642158,-1.9880484242206036,-1.6106010023940165,-1.0347554254169555,1.5968349916399909,0.7821395034455975,0.027452140647435824,-0.4024913128251963,0.19537035279900453,0.5935134602430584,3.0173345509327842,-0.07895104801208189,-0.02313775726145532,1.9593593929030042,1.9031383178129953,0.9717771298726466,0.011117185155670091,0.010752185705747715,0.0,0.0,0.0,0.0,0.0,0.0
1,1735835717.4206865,-1.1850724831068158,-2.0200836242206037,-1.6009902912227982,-1.0160381946413954,1.596617040736223,0.7947071418996716,0.02637164549999556,-0.40694852427449635,0.18748637909421254,0.6234548426645744,3.013555129238218,-0.07416474284222495,-0.02634691108884755,1.9947154378791385,1.8798705886144513,0.965543705013766,0.010504584966696182,0.010752508023540065,0.0,0.0,0.0,0.0,0.0,0.0
1,1735835717.5212195,-1.193655490688693,-2.059683624220604,-1.5891101043539724,-0.992901072391116,1.5963476228524824,0.8102425055865328,0.02484761152391856,-0.41220004909081115,0.17750014344582354,0.6604436186731517,3.0084855035883056,-0.06826585433142482,-0.030342844293030823,2.03659928677992,1.8500932934764476,0.9578424569900961,0.009804987170016887,0.010752842910739656,0.0,0.0,0.0,0.0,0.0,0.0
1,1735835717.6213882,-1.2047821896084727,-2.111019624220604,-1.5737090621040206,-0.9629069484557533,1.5959983593050153,0.8303819861478637,0.022566953903557486,-0.4185604254779145,0.16417530601268943,0.7083489383582309,3.0012588178302844,-0.06064801576900716,-0.035528563620897416,2.08777274589981,1.8098583003685895,0.9478849658252113,0.008997624849323222,0.010753172425742504,0.0,0.0,0.0,0.0,0.0,0.0
1,1735835717.7217183,-1.218363440853068,-2.1736803575539376,-1.5549105464136748,-0.9262961139248072,1.595572048139149,0.8549642407240949,0.019328187731992533,-0.42559724542866484,0.14736471722877947,0.766737544668282,2.9914363165218627,-0.051394867105066966,-0.013656830489496813,2.2894619651033192,1.7965459969168247,0.9491271433266262,0.017669942952234112,8.69930024842005e-07,0.0,0.0,0.0,0.0,0.0,0.0
1,1735835717.8222823,-1.2314113463184473,-2.2338803575539377,-1.5368502623353075,-0.8911230139382713,1.595162478528008,0.8785811319854344,0.015761723989424384,-0.43155798692328684,0.13069029878073438,0.8227280496525177,2.9809627533821934,-0.042552365589409266,-0.01352141330251406,2.3449263022217064,1.7549385894211553,0.9442031846587625,0.017604844510318844,6.494150855850492e-07,0.0,0.0,0.0,0.0,0.0,0.0
1,1735835717.9228473,-1.2438523724598554,-2.291280357553937,-1.5196299914698876,-0.8575858720906435,1.5947719586662226,0.9010995631881069,0.011963879296439939,-0.4364690178991608,0.11435456358342733,0.876001846643787,2.970030635115167,-0.03416474326456345,-0.013309371463793405,2.3926049495814423,1.7130972109586482,0.9395049876203332,0.017550283862677752,4.3907763161142377e-07,0.0,0.0,0.0,0.0,0.0,0.0
1,1735835718.023227,-1.2571393824407862,-2.3525835301569566,-1.5012387504048421,-0.821768220604632,1.5943548836402304,0.9251492369645291,0.00750143682205591,-0.4408383205982279,0.09648342201807666,0.9327592489349614,2.9573365447093805,-0.025254265131011523,0.0222472015661037,2.5894338423670105,1.7130417178573059,0.9550349576629165,0.02735934252884242,-0.010752540401723736,0.0,0.0,0.0,0.0,0.0,0.0
1,1735835718.1237335,-1.2687244047048445,-2.406034127430735,-1.4852033189941638,-0.7905385993047878,1.5939912334684585,0.9461182891849356,0.003287939725241396,-0.4438772231928435,0.0805827439413467,0.982114838123679,2.9454108760671973,-0.017525610384941503,0.0275220771561516,2.6286595366050944,1.679271910667738,0.9561483572366597,0.02753337599983285,-0.010752722325875404,0.0,0.0,0.0,0.0,0.0,0.0
1,1735835718.2242599,-1.278108015569721,-2.449327924704513,-1.4722149755125074,-0.7652432992996809,1.5936966849017766,0.9631027560039603,-0.00033164952724860225,-0.4457933102101485,0.06751128526708469,1.021992945660637,2.935166449947322,-0.011293446820571505,0.03164386321856899,2.656813572211139,1.6506295606253518,0.9569000138988325,0.027569726072608523,-0.01075277566431664,0.0,0.0,0.0,0.0,0.0,0.0
1,1735835718.3244348,-1.2851574884669184,-2.4818525524723394,-1.4624574337013767,-0.7462401101883422,1.5934754041850432,0.97586240047752,-0.003165596090467655,-0.44690313841174084,0.057590660154120565,1.0518890010630269,2.9271263342951706,-0.006628047516003952,0.03463202100096479,2.6757840529614403,1.6283658411366848,0.9573659495195649,0.02753380264520326,-0.010752760368463574,0.0,0.0,0.0,0.0,0.0,0.0
1,1735835718.42523,-1.2902710031019273,-2.505445119252069,-1.4553795523362645,-0.7324556631736829,1.5933148925836844,0.9851179334378651,-0.005279820135340321,-0.44752788352456296,0.05034573307378459,1.0735395069354818,2.921109756806637,-0.003252811949883041,0.03673378471510172,2.688354654292774,1.6118214067664511,0.9576466917402623,0.027473188217054505,-0.010752719542711092,0.0,0.0,0.0,0.0,0.0,0.0
1,1735835718.5260303,-1.2928549109766916,-2.5173666689960887,-1.4518030311563406,-0.7254902501979208,1.5932337845356304,0.9897948428061566,-0.006366192769591488,-0.4477852257035092,0.04667038469651888,1.0844680153169028,2.9180105741411118,-0.001550140478926293,0.037773214700563405,2.6943220430002035,1.6033363430889709,0.9577693354496774,0.027431386537892077,-0.010752689404678651,0.0,0.0,0.0,0.0,0.0,0.0
1,1735835718.6262584,-1.2936904092110453,-2.5212214634565155,-1.4506465746277852,-0.7232380064938653,1.5932075585112417,0.9913071062879957,-0.006719999999999918,-0.4478599999999999,0.04547999999999998,1.087999999999999,2.916999999999995,-0.001000000000002457,0.002933410512207123,2.5526326645284554,1.5568749979577556,0.9365205911305549,0.018348480967747993,-0.0008277455471294279,0.0,0.0,0.0,0.0,0.0,0.0
1,1735835718.7269115,-1.2936904092110453,-2.5212214634565155,-1.4506465746277852,-0.7232380064938653,1.5932075585112417,0.9913071062879957,-0.006719999999999918,-0.4478599999999999,0.04547999999999998,1.087999999999999,2.916999999999995,-0.001000000000002457,-1.2939633402711176e-16,2.540659393332371,1.5532304008761186,0.93474536182435,0.017592222926392675,0.0,0.0,0.0,0.0,0.0,0.0,0.0
1,1735835718.8274457,-1.2936904092110453,-2.5212214634565155,-1.4506465746277852,-0.7232380064938653,1.5932075585112417,0.9913071062879957,-0.006719999999999918,-0.4478599999999999,0.04547999999999998,1.087999999999999,2.916999999999995,-0.001000000000002457,-1.2939633402711176e-16,2.540659393332371,1.5532304008761186,0.93474536182435,0.017592222926392675,0.0,0.0,0.0,0.0,0.0,0.0,0.0
1,1735835718.9279761,-1.2936904092110453,-2.5212214634565155,-1.4506465746277852,-0.7232380064938653,1.5932075585112417,0.9913071062879957,-0.006719999999999918,-0.4478599999999999,0.04547999999999998,1.087999999999999,2.916999999999995,-0.001000000000002457,-1.2939633402711176e-16,2.540659393332371,1.5532304008761186,0.93474536182435,0.017592222926392675,0.0,0.0,0.0,0.0,0.0,0.0,0.0
1,1735835719.028902,-1.2936904092110453,-2.5212214634565155,-1.4506465746277852,-0.7232380064938653,1.5932075585112417,0.9913071062879957,-0.006719999999999918,-0.4478599999999999,0.04547999999999998,1.087999999999999,2.916999999999995,-0.001000000000002457,-1.2939633402711176e-16,2.540659393332371,1.5532304008761186,0.93474536182435,0.017592222926392675,0.0,0.0,0.0,0.0,0.0,0.0,0.0
1,1735835719.1293225,-1.2936904092110453,-2.5212214634565155,-1.4506465746277852,-0.7232380064938653,1.5932075585112417,0.9913071062879957,-0.006719999999999918,-0.4478599999999999,0.04547999999999998,1.087999999999999,2.916999999999995,-0.001000000000002457,-1.2939633402711176e-16,2.540659393332371,1.5532304008761186,0.93474536182435,0.017592222926392675,0.0,0.0,0.0,0.0,0.0,0.0,0.0
1,1735835719.2296169,-1.2936904092110453,-2.5212214634565155,-1.4506465746277852,-0.7232380064938653,1.5932075585112417,0.9913071062879957,-0.006719999999999918,-0.4478599999999999,0.04547999999999998,1.087999999999999,2.916999999999995,-0.001000000000002457,-1.2939633402711176e-16,2.540659393332371,1.5532304008761186,0.93474536182435,0.017592222926392675,0.0,0.0,0.0,0.0,0.0,0.0,0.0
1,1735835719.3301854,-1.2936904092110453,-2.5212214634565155,-1.4506465746277852,-0.7232380064938653,1.5932075585112417,0.9913071062879957,-0.006719999999999918,-0.4478599999999999,0.04547999999999998,1.087999999999999,2.916999999999995,-0.001000000000002457,-1.2939633402711176e-16,2.540659393332371,1.5532304008761186,0.93474536182435,0.017592222926392675,0.0,0.0,0.0,0.0,0.0,0.0,0.0
1,1735835719.434583,-1.2936904092110453,-2.5212214634565155,-1.4506465746277852,-0.7232380064938653,1.5932075585112417,0.9913071062879957,-0.006719999999999918,-0.4478599999999999,0.04547999999999998,1.087999999999999,2.916999999999995,-0.001000000000002457,-1.2939633402711176e-16,2.540659393332371,1.5532304008761186,0.93474536182435,0.017592222926392675,0.0,0.0,0.0,0.0,0.0,0.0,0.0
1,1735835719.5354116,-1.293681510119237,-2.5211918109165157,-1.4506447565891243,-0.7232641690825341,1.5932031406064968,0.9913072144988886,-0.00671606787094684,-0.4478613588710736,0.04549085522202344,1.0879872898269438,2.9170051755585735,-0.0010105336807068046,0.0029119941738352073,2.549616472707097,1.557555061253592,0.9362973927648317,0.018006216985357534,-4.373545607104578e-05,0.0,0.0,0.0,0.0,0.0,0.0
1,1735835719.63645,-1.2935280242888307,-2.5206803829165154,-1.4506134002238191,-0.7237154046393428,1.5931269434177249,0.9913090808509967,-0.006648259058774402,-0.4478847420834367,0.04567808474260775,1.0877680690983649,2.9170944152299336,-0.0011922132061060312,0.012545663373659985,2.579243138538827,1.5724151491040297,0.9414849335831526,0.01932867571679979,-0.0001885131535230281,0.0,0.0,0.0,0.0,0.0,0.0
1,1735835719.7374492,-1.2928612026155015,-2.5184584756965154,-1.4504771719874592,-0.7256758048160901,1.59279590349837,0.9913171892479244,-0.006353883627151432,-0.4479851518261013,0.0464916285153813,1.086815577604519,2.917481568745332,-0.0019815523904388285,0.028358589297642425,2.6279700817987677,1.5986458035377773,0.9501533177915514,0.021348953360888906,-0.0004269977182195603,0.0,0.0,0.0,0.0,0.0,0.0
1,1735835719.8381886,-1.2909900375141827,-2.5122235924965155,-1.4500949025863799,-0.7311768743554747,1.5918669739674087,0.9913399421816783,-0.005529783947528392,-0.4482566777241864,0.04877554056240466,1.0841420757047733,2.9185631854028835,-0.004196765262735461,0.05087657793087949,2.6979921999622825,1.640035063280002,0.9627487094378557,0.02391782844971808,-0.00077058061921975,0.0,0.0,0.0,0.0,0.0,0.0
1,1735835719.9387674,-1.2872480085822726,-2.4997548299565153,-1.4493304253322812,-0.742178127723399,1.5900092644696668,0.9913854443858038,-0.0038905983923574446,-0.44875445275453,0.053347254178650064,1.0787923668401265,2.920705126843501,-0.008627901796306698,0.07745654098467057,2.782604847850518,1.6954807207371174,0.977835382907405,0.026489655592007607,-0.0011877787149508993,0.0,0.0,0.0,0.0,0.0,0.0
1,1735835720.039054,-1.2806605537780005,-2.4778048634565155,-1.4479846422151796,-0.7615446961466317,1.5867389590876089,0.9914655463087514,-0.0010354760440304074,-0.44948441625729474,0.061407172022932166,1.069364911546337,2.924407340620162,-0.01643162117789232,0.052362471284629314,2.7075252011107795,1.6864166522183481,0.9665320011958345,0.02063916618901273,-0.0008333953038295894,0.0,0.0,0.0,0.0,0.0,0.0
1,1735835720.1392052,-1.2720086764705147,-2.4489760634565156,-1.446217108204305,-0.7869804947734629,1.5824437826098554,0.9915707511306482,0.002650151652284491,-0.4501604256667465,0.07201025256674395,1.0569648753718575,2.9291370275743147,-0.026686157690043028,0.04948984162059193,2.70103020959984,1.718488961979126,0.9675753361683009,0.017208783268424538,-0.0008258790637903537,0.0,0.0,0.0,0.0,0.0,0.0
1,1735835720.2400308,-1.260550629167195,-2.4107968634565156,-1.443876288103989,-0.8206661994484232,1.576755498609847,0.991710078329011,0.007406326619360814,-0.45056413297314774,0.08606841179233539,1.0405135964571206,2.9351685129299097,-0.04027362000951896,0.04531346326413862,2.689424030744234,1.759143286393888,0.968695327699107,0.012543340808925142,-0.0008156033388175007,0.0,0.0,0.0,0.0,0.0,0.0
1,1735835720.3404412,-1.247038373232428,-2.3657728634565154,-1.441115803751341,-0.860391106394756,1.5700474141341019,0.9918743842280107,0.012809539237966674,-0.45032638606471975,0.10264424987104072,1.0210741646570856,2.9419409159785137,-0.056303161182493726,0.03986674397176867,2.6713567590693383,1.8043394882073183,0.9696446499723871,0.006867538920127239,-0.0008030155554330936,0.0,0.0,0.0,0.0,0.0,0.0
1,1735835720.4410105,-1.2320673514654228,-2.3158881301231817,-1.438057301046058,-0.9044046633801255,1.562615133456018,0.9920564283812776,0.0185026427405903,-0.4491721336442518,0.1209668444821292,0.9994935335455426,2.949013897408995,-0.07406483936981806,-0.0078112636037056486,2.504447171606077,1.7846804924481359,0.9501945158993923,-0.005501131771576985,-0.00010001666394487366,0.0,0.0,0.0,0.0,0.0,0.0
1,1735835720.5417135,-1.2152610629893443,-2.2598881301231817,-1.4346238627964958,-0.9538137516218326,1.5542717448045935,0.9922607889521726,0.024479984334008147,-0.4467806420158356,0.14142616578268552,0.9752232490364507,2.9564145185892263,-0.09399721475948442,-0.017194288169059158,2.442522495446054,1.8279531484263418,0.9527328977857241,-0.013667972243934337,3.886070009657797e-05,0.0,0.0,0.0,0.0,0.0,0.0
1,1735835720.6419322,-1.1984547745132659,-2.2038881301231816,-1.4311904245469336,-1.0032228398635397,1.545928356153169,0.9924651495230677,0.029969434248655034,-0.4432574716734983,0.16170659779792004,0.9509166832185614,2.9632447274508382,-0.11391267953889953,-0.018254205641894932,2.401849816961092,1.879576145828811,0.959235680702598,-0.02063488082003057,3.999886432308445e-05,0.0,0.0,0.0,0.0,0.0,0.0
1,1735835720.7427697,-1.1799678571895784,-2.142288130123182,-1.4274136424724162,-1.0575728369294177,1.536750628636602,0.9926899461510522,0.035385105505409145,-0.43811487197510035,0.18373075879699813,0.924150430026472,2.970099829200432,-0.135787965193324,-0.01931007642360576,2.347838931388476,1.9315658677069103,0.966473365343227,-0.02843681603742344,4.1274013358192094e-05,0.0,0.0,0.0,0.0,0.0,0.0
1,1735835720.843289,-1.161901097077794,-2.082088130123182,-1.4237226963541367,-1.110687606789253,1.5277814858363206,0.9929096337647645,0.03998983029321903,-0.4318544261103653,0.20488692396778863,0.8979764444283693,2.976134252298921,-0.15712136141633337,-0.020149091636934263,2.289717620874739,1.9740897905070975,0.973152976066195,-0.03567961528050611,4.2458642112797794e-05,0.0,0.0,0.0,0.0,0.0,0.0
1,1735835720.943775,-1.1446746513898134,-2.024688130123181,-1.4202034221483357,-1.1613319222370029,1.5192295124686104,0.9931191033499319,0.043697678012267815,-0.4247985118713304,0.22464797237525042,0.8730174056128271,2.9812775768198367,-0.17740967304782146,-0.020818122548272276,2.225988981279503,2.0098610855668917,0.9796020337403408,-0.042709254609371985,4.36095021390185e-05,0.0,0.0,0.0,0.0,0.0,0.0
1,1735835721.0443125,-1.1274482057018327,-1.9672881301231815,-1.4166841479425347,-1.2119762376847536,1.5106775391009002,0.9933285729350994,0.04669607878363645,-0.4167346825482066,0.243939570453309,0.8480676886665375,2.9858270732974925,-0.1976353470963473,-0.021327518726150844,2.155560950265206,2.039837113531959,0.9859792350443983,-0.04969457465216408,4.47544542795496e-05,0.0,0.0,0.0,0.0,0.0,0.0
1,1735835721.1448383,-1.1093814455900475,-1.9070881301231815,-1.4129932018242553,-1.265091007544589,1.5017083963006188,0.9935482605488115,0.049037126062411736,-0.4072565832483661,0.26359633707354874,0.8219234440323008,2.989963234476807,-0.2187685323749287,-0.02167976338591465,2.0747511164958126,2.064938318604541,0.992588898284435,-0.05696870397628886,4.594846629901407e-05,0.0,0.0,0.0,0.0,0.0,0.0
1,1735835721.2454116,-1.0913146854782632,-1.8468881301231814,-1.4093022557059767,-1.3182057774044242,1.4927392535003374,0.9937679481625237,0.0505176524276609,-0.3968026767458188,0.28259112395093994,0.7958152022735769,2.993452360606898,-0.23980853188230714,-0.021836906476818553,1.987117847466941,2.083461555874235,0.9991164649516288,-0.06418528990672794,4.713506487761919e-05,0.0,0.0,0.0,0.0,0.0,0.0
1,1735835721.345873,-1.075479961032599,-1.7941254651112502,-1.406067302988106,-1.3647585483230333,1.484878192420347,0.9939604947400913,0.0510818023070361,-0.3868970341549954,0.29863869137141397,0.7729723566911304,2.9959814474145814,-0.25816285871253436,-0.043675846085473743,1.7455182329771282,2.0289594207293367,1.0019556114786143,-0.07298324562498525,0.0008153013917958223,0.0,0.0,0.0,0.0,0.0,0.0
1,1735835721.4463391,-1.0582376014861925,-1.7366724387650052,-1.4025447776629214,-1.4154496491890116,1.4763183187059314,0.994170157834087,0.0508946535324196,-0.37538643549122797,0.31541815475674084,0.7481519133732912,2.9981770062557223,-0.27804707673161383,-0.03435089643463567,1.6528882520860386,2.0447848870047225,1.016654286007834,-0.0780465763700913,0.000795592887690316,0.0,0.0,0.0,0.0,0.0,0.0
1,1735835721.5468764,-1.0444434136007104,-1.6907090172346368,-1.3997266960635804,-1.4560034125869539,1.4694702706777687,0.9943378919602341,0.05013126937893642,-0.36568082603000895,0.3282830694906213,0.7283421911227428,2.9995171279135815,-0.2938716095315023,-0.026950632011542144,1.574968131005419,2.0530806862533875,1.0285004851900488,-0.08195164629971771,0.00077925739088032,0.0,0.0,0.0,0.0,0.0,0.0
1,1735835721.6474473,-1.0338986029924655,-1.6555728005201464,-1.3975724455205016,-1.4870042774463457,1.464235357967239,0.9944661144121425,0.049174991712985394,-0.3579893112913198,0.33776324046390327,0.7132309118729253,3.000293564918877,-0.3059150310981304,-0.02139394726986488,1.513232001922695,2.0568023844304486,1.0375903987612969,-0.08485794103222871,0.0007664318749494192,0.0,0.0,0.0,0.0,0.0,0.0
1,1735835721.7479281,-1.0261345114122005,-1.6297021789897785,-1.3959862815651025,-1.5098300599831633,1.4603809177872071,0.9945605239654524,0.0482629664606913,-0.35218660467333596,0.34453930805214683,0.7021239185256443,3.0007286155583883,-0.3147514079719802,-0.017385744174750237,1.466625001965115,2.058092660818145,1.0442944672104775,-0.08695784986287947,0.0007568024854218015,0.0,0.0,0.0,0.0,0.0,0.0
1,1735835721.8484492,-1.0213499332436058,-1.6137595526435335,-1.3950088168669659,-1.5238963212679169,1.4580056405062936,0.994618703326554,0.04761280072678499,-0.3485552831848627,0.34862646646223167,0.6952879645669533,3.0009392335489973,-0.3201831666554026,-0.014959156732224775,1.4374336128796381,2.058276273770641,1.0484281803403463,-0.0882361697263612,0.0007507902337518126,0.0,0.0,0.0,0.0,0.0,0.0
1,1735835721.949077,-1.0197484675576831,-1.6084233311131655,-1.3946816456685642,-1.5286044969906172,1.4572106017534727,0.9946381767779533,0.04738014498452177,-0.34733075228017696,0.3499791728651173,0.6930014019316052,3.0009999642596155,-0.32199888692801504,-0.014155206528607443,1.427584475281385,2.058233703717391,1.049811947934998,-0.08866148205488546,0.0007487645693283709,0.0,0.0,0.0,0.0,0.0,0.0
2,1735835722.0517492,-1.0197474855039426,-1.6084200588255602,-1.3946814450400389,-1.5286073841468157,1.457210114218343,0.994638188719499,0.04737999999999997,-0.3473300000000001,0.34997999999999996,0.6929999999999997,3.000999999999998,-0.3220000000000015,2.559207314082981e-17,1.5836552010744507,2.1212492908311025,1.0465021158671837,-0.08754267573804586,0.0,0.0,0.0,0.0,0.0,0.0,0.0
2,1735835722.1529646,-1.0201926928057308,-1.60730807732556,-1.3953158266461951,-1.5293212060689143,1.4574783828736115,0.9948369106598409,0.04708834858383116,-0.34708096810791167,0.35006441520374687,0.6939216481760474,3.0008431195322864,-0.3214623609188841,-0.03946768556272378,1.6512937287918181,2.1202227275581174,1.031696465306617,-0.09013900283637084,0.002851933730043606,0.0,0.0,0.0,0.0,0.0,0.0
2,1735835722.2535048,-1.0225468616674247,-1.60142813732556,-1.3986703121131745,-1.5330957563403214,1.4588969348880652,0.9958877132909043,0.045549430928190346,-0.34576001476862683,0.3505058434738676,0.6987955562249308,3.0000055826094876,-0.31861904992826,-0.07740986584646917,1.7077701352225811,2.117676460440343,1.0160975999236281,-0.09148917034930873,0.0056350908895257444,0.0,0.0,0.0,0.0,0.0,0.0
2,1735835722.3540385,-1.0289101219183872,-1.58553480482556,-1.4077374034258616,-1.5432982724376698,1.4627312459242754,0.9987280068325672,0.04141771397340638,-0.34215520880362305,0.3516573797995151,0.7119728269482352,2.99767448030739,-0.3109305421617092,-0.07677005682921796,1.6785099504116827,2.112113069264539,1.0116112465508384,-0.08751691997398538,0.0057393485038352175,0.0,0.0,0.0,0.0,0.0,0.0
2,1735835722.4545956,-1.0390275781285707,-1.5602647248255597,-1.4221538968100482,-1.5595200684632218,1.4688277235906126,1.0032440166134802,0.03493447289384849,-0.33632297216563256,0.3533629970447441,0.7329324770047642,2.9937655395300706,-0.29869723550056937,-0.07399144728925253,1.6284694436230815,2.1035600681015736,1.0054898051024221,-0.08121006585460855,0.005756799446618697,0.0,0.0,0.0,0.0,0.0,0.0
2,1735835722.555089,-1.051105740697916,-1.53009744482556,-1.439364225884546,-1.5788855577218905,1.476105664490449,1.0086352038017894,0.0273382809384017,-0.3292046946707038,0.35519741202747535,0.7579629786630833,2.988772628497108,-0.28408063115648063,-0.07073443358650104,1.5685408157651435,2.0931160324447236,0.9982287303544877,-0.0736769615945412,0.005777132193589261,0.0,0.0,0.0,0.0,0.0,0.0
2,1735835722.6556346,-1.0678108051347603,-1.48837368482556,-1.4631674868953288,-1.6056695775642922,1.4861716385987862,1.016091646688257,0.017101203810136002,-0.3190953258124404,0.3573723526233242,0.7925885631156846,2.981279734565268,-0.2638458342264329,-0.06635499236175986,1.4854051167957456,2.0782651183257967,0.9882889643198155,-0.06326153440233354,0.0058043489952017404,0.0,0.0,0.0,0.0,0.0,0.0
2,1735835722.7558374,-1.0901344151355774,-1.4326166448255595,-1.4949766856901805,-1.6414620772266808,1.4996231808614569,1.0260559735916448,0.00393475361469371,-0.30514432294811744,0.35962270079490705,0.8388483512249054,2.9701987895860555,-0.23677982733568714,-0.06076565627754626,1.374075309301407,2.057713651059696,0.9752363661937024,-0.04937361777362318,0.005839061753545877,0.0,0.0,0.0,0.0,0.0,0.0
2,1735835722.856037,-1.1149334827094561,-1.3706767254922259,-1.5303131957956495,-1.6812235950875047,1.5145663601022976,1.0371252413398397,-0.009962570953035665,-0.28911877602148267,0.36124513706628353,0.8901829230518243,2.956451720774531,-0.20669290443671623,0.013650655547998176,1.1215399011806115,2.049699334186568,1.002534177624111,-0.03365543256334858,8.514249060755662e-05,0.0,0.0,0.0,0.0,0.0,0.0
2,1735835722.9566307,-1.1358835526259128,-1.3183503371396306,-1.5601652196714566,-1.7148138329739542,1.5271902480342585,1.0464764773311852,-0.021073688414763203,-0.2752061779591248,0.3619005038304591,0.9334703652769331,2.9436562383052047,-0.18127242416226733,0.07901396108018915,0.897131364125933,2.0572291237493454,1.0402034771773847,-0.025193234737746647,-0.0057251188473453766,0.0,0.0,0.0,0.0,0.0,0.0
2,1735835723.0571947,-1.1561756805586914,-1.2676672715963955,-1.5890797335588012,-1.7473491613619938,1.5394176797299965,1.0555340355074914,-0.0312634735345689,-0.2614543887374518,0.36191636562879803,0.9752994037937297,2.9302288267045964,-0.15665825662279673,0.07389504720637606,0.8074269169848518,2.0524223400529893,1.0381203030128978,-0.018895279601185595,-0.005756972709943465,0.0,0.0,0.0,0.0,0.0,0.0
2,1735835723.157983,-1.1724013006198843,-1.2271410060531602,-1.6121998281168644,-1.7733644653626026,1.5491947549424367,1.0627764744541481,-0.03899390534692921,-0.25029481147980376,0.3614953828495698,1.008657727009057,2.9187599382702105,-0.13698903913796362,0.0699424964811096,0.7348880446332667,2.047754386213989,1.0359954633101738,-0.013661775058287846,-0.005781744440409393,0.0,0.0,0.0,0.0,0.0,0.0
2,1735835723.258398,-1.184779579267781,-1.1962241347372462,-1.6298377964488049,-1.7932111449233714,1.5566535368493595,1.068301620922141,-0.044636705589969024,-0.2416999720847626,0.360917843229646,1.0340442854996963,2.909572968624741,-0.12199443300426144,0.06718553835821921,0.6823079994699367,2.04391435947727,1.0341914062164597,-0.009778704347346335,-0.005799154651200095,0.0,0.0,0.0,0.0,0.0,0.0
2,1735835723.3589246,-1.1927837812407684,-1.1762322691940108,-1.6412430867107108,-1.8060446604885234,1.561476630476002,1.071874362295811,-0.048166645213124,-0.23611047674969618,0.3604273340902228,1.0504283019526452,2.90343086700414,-0.11230454141236997,0.0654183813425497,0.6476420375976759,2.041165095058818,1.0328742240739899,-0.007173585335397581,-0.005810383475856183,0.0,0.0,0.0,0.0,0.0,0.0
2,1735835723.4595535,-1.1964904485999757,-1.1669742325141712,-1.6465247646692083,-1.8119877355645588,1.5637101577878574,1.0735288637535907,-0.04976945474176588,-0.23351458039767517,0.3601692443352691,1.0580065665187752,2.9005329317936543,-0.10781907801476902,0.06461661787089917,0.6316467934012764,2.0398368166676653,1.032231054260993,-0.005958809894255607,-0.005815497764047911,0.0,0.0,0.0,0.0,0.0,0.0
2,1735835723.5600774,-1.197167422142094,-1.16528337512751,-1.6474893929698862,-1.8130731592606733,1.5641180818741578,1.073831036461247,-0.05005999999999995,-0.23304,0.36012,1.0593899999999992,2.900000000000003,-0.10700000000000282,-2.2597974772229002e-17,0.7521224311431111,2.0200439204963048,0.9857327246430984,-0.00522380444703914,0.0,0.0,0.0,0.0,0.0,0.0,0.0
2,1735835723.6604574,-1.197167422142094,-1.16528337512751,-1.6474893929698862,-1.8130731592606733,1.5641180818741578,1.073831036461247,-0.05005999999999995,-0.23304,0.36012,1.0593899999999992,2.900000000000003,-0.10700000000000282,-2.2597974772229002e-17,0.7521224311431111,2.0200439204963048,0.9857327246430984,-0.00522380444703914,0.0,0.0,0.0,0.0,0.0,0.0,0.0
2,1735835723.7610312,-1.197167422142094,-1.16528337512751,-1.6474893929698862,-1.8130731592606733,1.5641180818741578,1.073831036461247,-0.05005999999999995,-0.23304,0.36012,1.0593899999999992,2.900000000000003,-0.10700000000000282,-2.2597974772229002e-17,0.7521224311431111,2.0200439204963048,0.9857327246430984,-0.00522380444703914,0.0,0.0,0.0,0.0,0.0,0.0,0.0
2,1735835723.8615649,-1.197167422142094,-1.16528337512751,-1.6474893929698862,-1.8130731592606733,1.5641180818741578,1.073831036461247,-0.05005999999999995,-0.23304,0.36012,1.0593899999999992,2.900000000000003,-0.10700000000000282,-2.2597974772229002e-17,0.7521224311431111,2.0200439204963048,0.9857327246430984,-0.00522380444703914,0.0,0.0,0.0,0.0,0.0,0.0,0.0
2,1735835723.9620535,-1.197167422142094,-1.16528337512751,-1.6474893929698862,-1.8130731592606733,1.5641180818741578,1.073831036461247,-0.05005999999999995,-0.23304,0.36012,1.0593899999999992,2.900000000000003,-0.10700000000000282,-2.2597974772229002e-17,0.7521224311431111,2.0200439204963048,0.9857327246430984,-0.00522380444703914,0.0,0.0,0.0,0.0,0.0,0.0,0.0
2,1735835724.062586,-1.197167422142094,-1.16528337512751,-1.6474893929698862,-1.8130731592606733,1.5641180818741578,1.073831036461247,-0.05005999999999995,-0.23304,0.36012,1.0593899999999992,2.900000000000003,-0.10700000000000282,-2.2597974772229002e-17,0.7521224311431111,2.0200439204963048,0.9857327246430984,-0.00522380444703914,0.0,0.0,0.0,0.0,0.0,0.0,0.0
2,1735835724.16285,-1.197167422142094,-1.16528337512751,-1.6474893929698862,-1.8130731592606733,1.5641180818741578,1.073831036461247,-0.05005999999999995,-0.23304,0.36012,1.0593899999999992,2.900000000000003,-0.10700000000000282,-2.2597974772229002e-17,0.7521224311431111,2.0200439204963048,0.9857327246430984,-0.00522380444703914,0.0,0.0,0.0,0.0,0.0,0.0,0.0
2,1735835724.2632473,-1.197167422142094,-1.16528337512751,-1.6474893929698862,-1.8130731592606733,1.5641180818741578,1.073831036461247,-0.05005999999999995,-0.23304,0.36012,1.0593899999999992,2.900000000000003,-0.10700000000000282,-2.2597974772229002e-17,0.7521224311431111,2.0200439204963048,0.9857327246430984,-0.00522380444703914,0.0,0.0,0.0,0.0,0.0,0.0,0.0
2,1735835724.3638382,-1.197167422142094,-1.16528337512751,-1.6474893929698862,-1.8130731592606733,1.5641180818741578,1.073831036461247,-0.05005999999999995,-0.23304,0.36012,1.0593899999999992,2.900000000000003,-0.10700000000000282,-2.2597974772229002e-17,0.7521224311431111,2.0200439204963048,0.9857327246430984,-0.00522380444703914,0.0,0.0,0.0,0.0,0.0,0.0,0.0
2,1735835724.4644055,-1.197167422142094,-1.16528337512751,-1.6474893929698862,-1.8130731592606733,1.5641180818741578,1.073831036461247,-0.05005999999999995,-0.23304,0.36012,1.0593899999999992,2.900000000000003,-0.10700000000000282,-2.2597974772229002e-17,0.7521224311431111,2.0200439204963048,0.9857327246430984,-0.00522380444703914,0.0,0.0,0.0,0.0,0.0,0.0,0.0
2,1735835724.5651147,-1.197167422142094,-1.16528337512751,-1.6474893929698862,-1.8130731592606733,1.5641180818741578,1.073831036461247,-0.05005999999999995,-0.23304,0.36012,1.0593899999999992,2.900000000000003,-0.10700000000000282,-2.2597974772229002e-17,0.7521224311431111,2.0200439204963048,0.9857327246430984,-0.00522380444703914,0.0,0.0,0.0,0.0,0.0,0.0,0.0
2,1735835724.6675508,-1.197167422142094,-1.16528337512751,-1.6474893929698862,-1.8130731592606733,1.5641180818741578,1.073831036461247,-0.05005999999999995,-0.23304,0.36012,1.0593899999999992,2.900000000000003,-0.10700000000000282,-2.2597974772229002e-17,0.7521224311431111,2.0200439204963048,0.9857327246430984,-0.00522380444703914,0.0,0.0,0.0,0.0,0.0,0.0,0.0
2,1735835724.768413,-1.1972039261420946,-1.165312671136916,-1.6474749393712314,-1.8130591072540865,1.5641151419828776,1.0737963504697199,-0.05006601755013841,-0.2330452645819199,0.36011974803577224,1.059394537963334,2.9000036823779265,-0.10700513882462043,-0.004810985418409114,0.7480514368202079,2.0205740011304876,0.986546383416581,-0.006494018563508656,-0.001227100018009215,0.0,0.0,0.0,0.0,0.0,0.0
2,1735835724.8691049,-1.1978291646020942,-1.1658144515392017,-1.6472273789459573,-1.812818425275177,1.5640647876902922,1.0732022507566505,-0.05016915369461704,-0.23313542149856759,0.36011540036232675,1.0594722736804714,2.900066777807441,-0.10709309215406349,-0.020675843617720926,0.7353650634329696,2.022411658932576,0.9892093886123927,-0.010719350218796483,-0.005269971075058363,0.0,0.0,0.0,0.0,0.0,0.0
2,1735835724.9696379,-1.2001250886020944,-1.167657027999291,-1.6463183179105272,-1.8119346224269837,1.5638798828319926,1.071020670644594,-0.05054897829480708,-0.23346624684509318,0.36009891581699893,1.059757882844933,2.900298855279047,-0.10741502250318266,-0.043934226552422864,0.7188300015624675,2.0252826527106524,0.9930000754250744,-0.017036292772498976,-0.011169761285344472,0.0,0.0,0.0,0.0,0.0,0.0
2,1735835725.0700495,-1.2076265746820942,-1.1736772889777436,-1.6433481374066643,-1.8090469681478432,1.5632757420935972,1.0638927810267331,-0.05180205490781293,-0.23454446974507456,0.3600393577628916,1.0606927735776999,2.9010613275697157,-0.10845542425381763,-0.08344007095966535,0.6963662802531654,2.030294906024934,0.9988642527357553,-0.028188507878327607,-0.021036720604936474,0.0,0.0,0.0,0.0,0.0,0.0
2,1735835725.1706142,-1.2233760221420944,-1.1863168890469122,-1.6371122127787414,-1.8029843081806112,1.562007342377017,1.0489277031954911,-0.05449318858035897,-0.23679387033558752,0.3598858699445203,1.0626640389803939,2.9026827537386772,-0.11058232336710658,-0.08685653717844792,0.717988825316243,2.0316204746197943,0.997148528728809,-0.030824811241226244,-0.021331730892356834,0.0,0.0,0.0,0.0,0.0,0.0
2,1735835725.2709043,-1.2500928221420944,-1.2077582550367731,-1.6265338130271036,-1.792699828409246,1.5598556744131726,1.0235414798110087,-0.05924576910638593,-0.24055936407183837,0.359537047250925,1.0660335418682758,2.90549504584462,-0.11400987096504106,-0.09043497731740918,0.756514702685274,2.0339218518506033,0.9942530788069021,-0.03446297988906016,-0.02133194485160771,0.0,0.0,0.0,0.0,0.0,0.0
2,1735835725.3712728,-1.2870288221420942,-1.237400962778775,-1.61190916586777,-1.7784815258866704,1.5568809915202906,0.9884450031772338,-0.06620601282943847,-0.24564131913582743,0.35887051750850024,1.070742482772175,2.9095040083157495,-0.11836655563436696,-0.09586307420440278,0.8101552681231108,2.0367043828962403,0.9900827194793126,-0.03949915660997976,-0.021332366360784574,0.0,0.0,0.0,0.0,0.0,0.0
2,1735835725.4715526,-1.3325424221420938,-1.2739275585954957,-1.593888255618932,-1.7609613251694443,1.5532155018269431,0.9451981167001117,-0.07540535263728422,-0.25166219599588874,0.357753099787946,1.0766205002213742,2.9146211621114206,-0.12310875848292815,-0.10331702155313187,0.8767917169976125,2.0394842225755982,0.9846800285434522,-0.04570447534159685,-0.021333086427164593,0.0,0.0,0.0,0.0,0.0,0.0
2,1735835725.572046,-1.388702422142094,-1.3189983422967853,-1.5716519499965527,-1.7393428534976927,1.548692592165251,0.8918350528125006,-0.0876987901772017,-0.2586390432408675,0.35592047865435045,1.0839776883203267,2.9211730530807762,-0.12797737138223467,-0.11366627423320155,0.9597044793755567,2.0419042241888805,0.9776194207573699,-0.05334006421775812,-0.021334280309300808,0.0,0.0,0.0,0.0,0.0,0.0
2,1735835725.6727655,-1.4529007554754276,-1.3705202296837147,-1.5462329015555385,-1.7146300712587266,1.543522306159235,0.8308339886539391,-0.1026573512568568,-0.2657151580780278,0.3532734405996645,1.0923230904536454,2.9287587597808673,-0.13209349359790706,-0.024496165485035366,1.1316821336564227,2.0469923487185113,0.9640981663859072,-0.03225940483794336,-2.7477810433821556e-06,0.0,0.0,0.0,0.0,0.0,0.0
2,1735835725.7729254,-1.5173007554754276,-1.4222039631303502,-1.5207340040825823,-1.6898396585867026,1.5383357786981777,0.7696413014323907,-0.11965902877645547,-0.2721381030327831,0.3498190762718072,1.101177468819833,2.9369319608271383,-0.13485557005694157,-0.0265390720241337,1.2278658343861473,2.054834249534057,0.9623042489594444,-0.03622936158998441,-3.3103854871082886e-06,0.0,0.0,0.0,0.0,0.0,0.0
2,1735835725.8734887,-1.5817007554754277,-1.473887696576985,-1.495235106609626,-1.6650492459146795,1.5331492512371203,0.7084486142108424,-0.13754805217181806,-0.2772687933698055,0.3457614738637592,-1.1038425210205491,-2.9289384702127768,0.1352371064412992,-0.02850846097267707,1.3239019546071833,2.0615396459043858,0.9605256704414589,-0.040158750268520824,-3.873002612793929e-06,0.0,0.0,0.0,0.0,0.0,0.0
2,1735835725.9742951,-1.6447007554754283,-1.5244478706008673,-1.4702905329947775,-1.6407977552572657,1.5280754743730427,0.6485862027984582,-0.1561594249033912,-0.28102057597125624,0.34114393336969123,-1.1049698618105388,-2.9173032486322614,0.13390257158347982,-0.030345653646730097,1.4174624451069182,2.0669951842039427,0.9588026895311587,-0.04396343694921327,-4.423381673744999e-06,0.0,0.0,0.0,0.0,0.0,0.0
2,1735835726.074692,-1.7091007554754274,-1.5761316040475029,-1.4447916355218213,-1.6160073425852426,1.5228889469119855,0.5873935155769099,-0.1762144006233876,-0.28340391645002,0.3357625795149626,-1.1061193595289343,-2.9055337709057754,0.13099313696722953,-0.03211396519966783,1.5124546716211593,2.071439931139945,0.9570608307217954,-0.04781260248305078,-4.985963996139118e-06,0.0,0.0,0.0,0.0,0.0,0.0
2,1735835726.175099,-1.7749007554754277,-1.6289388969168908,-1.4187384141907575,-1.5906780078986102,1.5175896688539487,0.5248705525461975,-0.19764892116092417,-0.28416896601637665,0.3295770424807545,-1.1073209257946282,-2.8937147690682337,0.1264369746400749,-0.0337874015187468,1.608572493699017,2.0747968063096223,0.9553035406403095,-0.05170380855529286,-5.560726772790899e-06,0.0,0.0,0.0,0.0,0.0,0.0
2,1735835726.2757316,-1.8379007554754274,-1.679499070940773,-1.393793840575909,-1.5664265172411964,1.512515891989871,0.4650081411338133,-0.21892164098580685,-0.2831856144322512,0.323008596814608,-1.1085248761361344,-2.8826635060899855,0.12061210211089562,-0.03524626590711319,1.6994619960380661,2.0768876970066565,0.9536442842717072,-0.055390295775068724,-6.110964691306105e-06,0.0,0.0,0.0,0.0,0.0,0.0
2,1735835726.3762898,-1.8995007554754277,-1.7289356855419031,-1.369403590819168,-1.5427139485983918,1.5075548657227726,0.40647600553059315,-0.24028175998765613,-0.2804893215926966,0.31598096014482985,-1.1097779604507683,-2.872169871707961,0.11357544771682472,-0.036521966735714013,1.7870252955887949,2.077869589133492,0.9520457192473595,-0.05895822246911285,-6.6488933073799895e-06,0.0,0.0,0.0,0.0,0.0,0.0
2,1735835726.4771404,-1.9583007554754275,-1.7761251812975267,-1.346121988778643,-1.5200792239848049,1.5028193406496335,0.35060442154570126,-0.2610420605021427,-0.2762291960449974,0.30872127967998664,-1.1110658420150268,-2.862492917943296,0.10566514500899725,-0.0375880126506993,1.8692013202773199,2.0778275129359325,0.9505433589573258,-0.062330598428106405,-7.162278704745112e-06,0.0,0.0,0.0,0.0,0.0,0.0
2,1735835726.577444,-2.012900755475428,-1.8199439987848915,-1.324503358312441,-1.4990612654150457,1.4984220673674329,0.2987236649883016,-0.2805135457522245,-0.2707380429195908,0.3015044931482058,-1.1123595368138954,-2.853845236206842,0.09731693687487881,-0.038435485459627945,1.9441104091134924,2.076933204356197,0.9491701730588621,-0.06543332231103323,-7.638899579139704e-06,0.0,0.0,0.0,0.0,0.0,0.0
2,1735835726.6782312,-2.067500755475428,-1.8637628162722564,-1.302884727846239,-1.4780433068452874,1.494024794085232,0.24684290843090206,-0.30004423751857573,-0.2637237892971937,0.2938367773367332,-1.1137630734747586,-2.8455588523588315,0.0880444553939063,-0.039137522185789475,2.0175222811499607,2.0752171144873475,0.9478191790766516,-0.06850878900129218,-8.11541709527762e-06,0.0,0.0,0.0,0.0,0.0,0.0
